{"type":"map","version":"1.10","tiledversion":"1.10.2","orientation":"orthogonal","renderorder":"right-down","width":16,"height":12,"tilewidth":16,"tileheight":16,"infinite":false,"compressionlevel":-1,"tilesets":[{"firstgid":1,"source":"../assets/tilesets/placeholder.tsj"}],"layers":[{"id":1,"name":"ground","type":"tilelayer","visible":true,"opacity":1,"x":0,"y":0,"width":16,"height":12,"data":[35,35,35,35,35,35,35,35,35,35,35,35,35,35,35,35,35,35,35,35,35,35,35,35,35,35,35,35,35,35,35,35,35,35,35,35,35,35,35,35,35,35,35,35,35,35,35,35,35,35,35,35,35,35,35,35,35,35,35,35,35,35,35,35,35,35,35,35,35,35,35,35,35,35,35,35,35,35,35,35,35,35,35,35,35,35,35,35,35,35,35,35,35,35,35,35,35,35,35,35,35,35,35,35,35,35,35,35,35,35,35,35,35,35,35,35,35,35,35,35,35,35,35,35,35,35,35,35,35,35,35,35,35,35,35,35,35,35,35,35,35,35,35,35,35,35,35,35,35,35,35,35,35,35,35,35,35,35,35,35,35,35,35,35,35,35,35,35,35,35,35,35,35,35,35,35,35,35,35,35,35,35,35,24,24,35,35,35,35,35,35,35]},{"id":2,"name":"walls","type":"tilelayer","visible":true,"opacity":1,"x":0,"y":0,"width":16,"height":12,"data":[37,37,37,37,37,37,37,0,0,37,37,37,37,37,37,37,37,36,36,36,36,36,36,0,0,36,36,36,36,36,36,37,37,0,0,0,0,0,0,0,0,0,0,0,0,0,0,37,37,0,0,0,0,0,0,0,0,0,0,0,0,0,0,37,37,0,0,0,0,0,0,0,0,0,0,0,0,0,0,37,37,0,0,0,0,0,0,0,0,0,0,0,0,0,0,37,37,0,0,0,0,0,0,0,0,0,0,0,0,0,0,37,37,0,0,0,0,0,0,0,0,0,0,0,0,0,0,37,37,0,0,0,0,0,0,0,0,0,0,0,0,0,0,37,37,0,0,0,0,0,0,0,0,0,0,0,0,0,0,37,37,0,0,0,0,0,0,0,0,0,0,0,0,0,0,37,37,37,37,37,37,37,37,0,0,37,37,37,37,37,37,37]},{"id":3,"name":"above","type":"tilelayer","visible":true,"opacity":1,"x":0,"y":0,"width":16,"height":12,"data":[0,0,0,0,0,0,0,0,0,0,0,0,0,0,0,0,0,0,0,0,0,0,0,0,0,0,0,0,0,0,0,0,0,0,0,0,0,0,0,0,0,0,0,0,0,0,0,0,0,0,0,0,0,0,0,0,0,0,0,0,0,0,0,0,0,0,0,0,0,0,0,0,0,0,0,0,0,0,0,0,0,0,0,0,0,0,0,0,0,0,0,0,0,0,0,0,0,0,0,0,0,0,0,0,0,0,0,0,0,0,0,0,0,0,0,0,0,0,0,0,0,0,0,0,0,0,0,0,0,0,0,0,0,0,0,0,0,0,0,0,0,0,0,0,0,0,0,0,0,0,0,0,0,0,0,0,0,0,0,0,0,0,0,0,0,0,0,0,0,0,0,0,0,0,0,0,0,0,0,0,0,0,0,0,0,0,0,0,0,0,0,0]},{"id":4,"name":"objects","type":"objectgroup","visible":true,"opacity":1,"x":0,"y":0,"draworder":"topdown","objects":[{"id":1,"name":"to_town","type":"warp","x":112,"y":176,"width":32,"height":16,"rotation":0,"visible":true,"properties":[{"name":"map","type":"string","value":"town2"},{"name":"spawn","type":"string","value":"from_dungeon"}]},{"id":2,"name":"to_hub","type":"warp","x":112,"y":0,"width":32,"height":16,"rotation":0,"visible":true,"properties":[{"name":"map","type":"string","value":"dungeon2_2"},{"name":"spawn","type":"string","value":"south"}]},{"id":3,"name":"TorchGate","type":"gate","x":112,"y":16,"width":32,"height":16,"rotation":0,"visible":true,"properties":[{"name":"flag","type":"string","value":"d2_torch_a,d2_torch_b"},{"name":"text","type":"string","value":"Two cold torches flank the gate. Maybe fire would help..."}]},{"id":4,"name":"Torch","type":"torch","x":88,"y":40,"width":0,"height":0,"rotation":0,"visible":true,"point":true,"properties":[{"name":"flag","type":"string","value":"d2_torch_a"}]},{"id":5,"name":"Torch","type":"torch","x":168,"y":40,"width":0,"height":0,"rotation":0,"visible":true,"point":true,"properties":[{"name":"flag","type":"string","value":"d2_torch_b"}]},{"id":6,"name":"Light","type":"light","x":128,"y":168,"width":0,"height":0,"rotation":0,"visible":true,"point":true,"properties":[{"name":"radius","type":"int","value":40}]},{"id":7,"name":"entrance","type":"spawn","x":128,"y":160,"width":0,"height":0,"rotation":0,"visible":true,"point":true,"properties":[{"name":"facing","type":"string","value":"up"}]},{"id":8,"name":"north","type":"spawn","x":128,"y":56,"width":0,"height":0,"rotation":0,"visible":true,"point":true,"properties":[{"name":"facing","type":"string","value":"down"}]},{"id":9,"name":"Knight","type":"enemy","x":136,"y":104,"width":0,"height":0,"rotation":0,"visible":true,"point":true,"properties":[{"name":"enemy","type":"string","value":"knight"}]},{"id":10,"name":"Spider","type":"enemy","x":56,"y":136,"width":0,"height":0,"rotation":0,"visible":true,"point":true,"properties":[{"name":"enemy","type":"string","value":"spider"}]},{"id":11,"name":"Spider","type":"enemy","x":200,"y":136,"width":0,"height":0,"rotation":0,"visible":true,"point":true,"properties":[{"name":"enemy","type":"string","value":"spider"}]},{"id":12,"name":"Map","type":"chest","x":224,"y":160,"width":0,"height":0,"rotation":0,"visible":true,"point":true,"properties":[{"name":"item","type":"string","value":"dungeon_map"},{"name":"flag","type":"string","value":"map:dungeon2"}]},{"id":13,"name":"Pot","type":"pot","x":24,"y":40,"width":0,"height":0,"rotation":0,"visible":true,"point":true,"properties":[]},{"id":14,"name":"Pot","type":"pot","x":232,"y":40,"width":0,"height":0,"rotation":0,"visible":true,"point":true,"properties":[]},{"id":15,"name":"Pot","type":"pot","x":24,"y":168,"width":0,"height":0,"rotation":0,"visible":true,"point":true,"properties":[]},{"id":16,"name":"Sign","type":"sign","x":56,"y":48,"width":0,"height":0,"rotation":0,"visible":true,"point":true,"properties":[{"name":"text","type":"string","value":"Only flame opens the way."}]}]}],"nextlayerid":5,"nextobjectid":17}