{"type":"map","version":"1.10","tiledversion":"1.10.2","orientation":"orthogonal","renderorder":"right-down","width":18,"height":12,"tilewidth":16,"tileheight":16,"infinite":false,"compressionlevel":-1,"tilesets":[{"firstgid":1,"source":"../assets/tilesets/placeholder.tsj"}],"layers":[{"id":1,"name":"ground","type":"tilelayer","visible":true,"opacity":1,"x":0,"y":0,"width":18,"height":12,"data":[46,46,46,46,46,46,46,46,46,46,46,46,46,46,46,46,46,46,45,46,46,45,45,46,46,46,46,46,46,46,46,45,46,46,46,46,46,45,46,46,46,46,46,46,46,46,46,45,46,46,46,46,46,46,46,46,46,46,46,46,46,46,46,46,46,46,45,46,46,45,46,46,46,46,46,46,45,45,45,45,45,45,45,45,45,45,46,46,46,46,46,46,45,46,45,45,45,45,45,45,45,45,45,45,46,46,46,46,45,46,45,46,45,45,45,45,45,45,45,45,45,45,46,46,46,46,46,46,46,46,45,45,45,45,45,45,45,45,45,45,46,46,46,46,46,46,46,46,45,45,45,45,45,45,45,45,45,45,46,46,46,46,46,46,46,46,46,46,45,46,46,46,46,46,46,46,46,45,46,46,45,46,46,46,46,46,46,46,46,46,46,46,46,46,46,46,46,45,46,46,46,46,45,46,46,46,24,24,46,46,46,46,46,46,46,46]},{"id":2,"name":"walls","type":"tilelayer","visible":true,"opacity":1,"x":0,"y":0,"width":18,"height":12,"data":[48,48,48,48,48,48,48,48,0,0,48,48,48,48,48,48,48,48,48,47,47,47,47,47,47,47,0,0,47,47,47,47,47,47,47,48,48,0,0,0,0,0,0,0,0,0,0,0,0,0,47,0,0,48,48,0,0,0,0,0,0,0,0,0,0,0,0,0,0,0,0,48,48,0,0,0,0,0,0,0,0,0,0,0,0,0,47,0,0,48,48,0,0,0,0,0,0,0,0,0,0,0,0,0,47,47,47,48,48,0,0,0,0,0,0,0,0,0,0,0,0,0,0,0,0,48,48,0,0,0,0,0,0,0,0,0,0,0,0,0,0,0,0,48,48,0,0,0,0,0,0,0,0,0,0,0,0,0,0,0,0,48,48,0,0,0,0,0,0,0,0,0,0,0,0,0,0,0,0,48,48,0,0,0,0,0,0,0,0,0,0,0,0,0,0,0,0,48,48,48,48,48,48,48,48,48,0,0,48,48,48,48,48,48,48,48]},{"id":3,"name":"above","type":"tilelayer","visible":true,"opacity":1,"x":0,"y":0,"width":18,"height":12,"data":[0,0,0,0,0,0,0,0,0,0,0,0,0,0,0,0,0,0,0,0,0,0,0,0,0,0,0,0,0,0,0,0,0,0,0,0,0,0,0,0,0,0,0,0,0,0,0,0,0,0,0,0,0,0,0,0,0,0,0,0,0,0,0,0,0,0,0,0,0,0,0,0,0,0,0,0,0,0,0,0,0,0,0,0,0,0,0,0,0,0,0,0,0,0,0,0,0,0,0,0,0,0,0,0,0,0,0,0,0,0,0,0,0,0,0,0,0,0,0,0,0,0,0,0,0,0,0,0,0,0,0,0,0,0,0,0,0,0,0,0,0,0,0,0,0,0,0,0,0,0,0,0,0,0,0,0,0,0,0,0,0,0,0,0,0,0,0,0,0,0,0,0,0,0,0,0,0,0,0,0,0,0,0,0,0,0,0,0,0,0,0,0,0,0,0,0,0,0,0,0,0,0,0,0,0,0,0,0,0,0,0,0,0,0,0,0]},{"id":4,"name":"objects","type":"objectgroup","visible":true,"opacity":1,"x":0,"y":0,"draworder":"topdown","objects":[{"id":1,"name":"to_town","type":"warp","x":128,"y":176,"width":32,"height":16,"rotation":0,"visible":true,"properties":[{"name":"map","type":"string","value":"town3"},{"name":"spawn","type":"string","value":"from_dungeon"}]},{"id":2,"name":"to_hall","type":"warp","x":128,"y":0,"width":32,"height":16,"rotation":0,"visible":true,"properties":[{"name":"map","type":"string","value":"dungeon3_2"},{"name":"spawn","type":"string","value":"south"}]},{"id":3,"name":"entrance","type":"spawn","x":144,"y":160,"width":0,"height":0,"rotation":0,"visible":true,"point":true,"properties":[{"name":"facing","type":"string","value":"up"}]},{"id":4,"name":"north","type":"spawn","x":144,"y":48,"width":0,"height":0,"rotation":0,"visible":true,"point":true,"properties":[{"name":"facing","type":"string","value":"down"}]},{"id":5,"name":"Crack","type":"crack","x":224,"y":48,"width":16,"height":16,"rotation":0,"visible":true,"properties":[{"name":"text","type":"string","value":"The ice wall is cracked..."}]},{"id":6,"name":"Supplies","type":"chest","x":256,"y":56,"width":0,"height":0,"rotation":0,"visible":true,"point":true,"properties":[{"name":"item","type":"string","value":"bomb"},{"name":"count","type":"int","value":5}]},{"id":7,"name":"Herb","type":"item","x":264,"y":72,"width":0,"height":0,"rotation":0,"visible":true,"point":true,"properties":[{"name":"item","type":"string","value":"frost_herb"}]},{"id":8,"name":"Map","type":"chest","x":40,"y":48,"width":0,"height":0,"rotation":0,"visible":true,"point":true,"properties":[{"name":"item","type":"string","value":"dungeon_map"},{"name":"flag","type":"string","value":"map:dungeon3"}]},{"id":9,"name":"IceSlime","type":"enemy","x":104,"y":104,"width":0,"height":0,"rotation":0,"visible":true,"point":true,"properties":[{"name":"enemy","type":"string","value":"ice_slime"}]},{"id":10,"name":"IceSlime","type":"enemy","x":184,"y":88,"width":0,"height":0,"rotation":0,"visible":true,"point":true,"properties":[{"name":"enemy","type":"string","value":"ice_slime"}]},{"id":11,"name":"IceSlime","type":"enemy","x":152,"y":120,"width":0,"height":0,"rotation":0,"visible":true,"point":true,"properties":[{"name":"enemy","type":"string","value":"ice_slime"}]},{"id":12,"name":"Pot","type":"pot","x":24,"y":168,"width":0,"height":0,"rotation":0,"visible":true,"point":true,"properties":[]},{"id":13,"name":"Pot","type":"pot","x":264,"y":168,"width":0,"height":0,"rotation":0,"visible":true,"point":true,"properties":[]},{"id":14,"name":"Sign","type":"sign","x":104,"y":48,"width":0,"height":0,"rotation":0,"visible":true,"point":true,"properties":[{"name":"text","type":"string","value":"Cracked walls crumble before bombs."}]}]}],"nextlayerid":5,"nextobjectid":15}