{"type":"map","version":"1.10","tiledversion":"1.10.2","orientation":"orthogonal","renderorder":"right-down","width":20,"height":14,"tilewidth":16,"tileheight":16,"infinite":false,"compressionlevel":-1,"tilesets":[{"firstgid":1,"source":"../assets/tilesets/placeholder.tsj"}],"layers":[{"id":1,"name":"ground","type":"tilelayer","visible":true,"opacity":1,"x":0,"y":0,"width":20,"height":14,"data":[35,35,35,35,35,35,35,35,35,35,35,35,35,35,35,35,35,35,35,35,35,35,35,35,35,35,35,35,35,35,35,35,35,35,35,35,35,35,35,35,35,35,35,35,35,35,35,35,35,35,35,35,35,35,35,35,35,35,35,35,35,35,35,35,35,35,35,35,35,35,35,35,35,35,35,35,35,35,35,35,35,35,35,35,35,35,35,35,35,35,35,35,35,35,35,35,35,35,35,35,35,35,35,35,35,35,35,35,38,38,38,38,35,35,35,35,35,35,35,35,35,35,35,35,35,35,35,35,38,38,38,38,35,35,35,35,35,35,35,35,35,35,35,35,35,35,35,35,38,38,38,38,35,35,35,35,35,35,35,35,35,35,35,35,35,35,35,35,38,38,38,38,35,35,35,35,35,35,35,35,35,35,35,35,35,35,35,35,35,35,35,35,35,35,35,35,35,35,35,35,35,35,35,35,35,35,35,35,35,35,35,35,35,35,35,35,35,35,35,35,35,35,35,35,35,35,35,35,35,35,35,35,35,35,35,35,35,35,35,35,35,35,35,35,35,35,35,35,35,35,35,35,35,35,35,35,35,35,35,35,35,35,35,35,35,35,35,35,35,35,35,35,35,35,35,35,35,35,35,35]},{"id":2,"name":"walls","type":"tilelayer","visible":true,"opacity":1,"x":0,"y":0,"width":20,"height":14,"data":[37,37,37,37,37,37,37,37,37,0,0,37,37,37,37,37,37,37,37,37,37,36,36,36,36,36,36,36,36,0,0,36,36,36,36,36,36,36,36,37,37,0,0,0,0,0,0,0,0,0,0,0,0,0,0,0,0,0,0,37,37,0,0,0,0,0,0,0,0,0,0,0,0,0,0,0,0,0,0,37,37,0,0,0,0,19,0,0,0,0,0,0,0,0,19,0,0,0,0,37,37,0,0,0,0,0,0,0,0,0,0,0,0,0,0,0,0,0,0,37,0,0,0,0,0,0,0,0,0,0,0,0,0,0,0,0,0,0,0,0,0,0,0,0,0,0,0,0,0,0,0,0,0,0,0,0,0,0,0,0,37,0,0,0,0,0,0,0,0,0,0,0,0,0,0,0,0,0,0,37,37,0,0,0,0,19,0,0,0,0,0,0,0,0,19,0,0,0,0,37,37,0,0,0,0,0,0,0,0,0,0,0,0,0,0,0,0,0,0,37,37,0,0,0,0,0,0,0,0,0,0,0,0,0,0,0,0,0,0,37,37,0,0,0,0,0,0,0,0,0,0,0,0,0,0,0,0,0,0,37,37,37,37,37,37,37,37,37,37,0,0,37,37,37,37,37,37,37,37,37]},{"id":3,"name":"above","type":"tilelayer","visible":true,"opacity":1,"x":0,"y":0,"width":20,"height":14,"data":[0,0,0,0,0,0,0,0,0,0,0,0,0,0,0,0,0,0,0,0,0,0,0,0,0,0,0,0,0,0,0,0,0,0,0,0,0,0,0,0,0,0,0,0,0,0,0,0,0,0,0,0,0,0,0,0,0,0,0,0,0,0,0,0,0,0,0,0,0,0,0,0,0,0,0,0,0,0,0,0,0,0,0,0,0,0,0,0,0,0,0,0,0,0,0,0,0,0,0,0,0,0,0,0,0,0,0,0,0,0,0,0,0,0,0,0,0,0,0,0,0,0,0,0,0,0,0,0,0,0,0,0,0,0,0,0,0,0,0,0,0,0,0,0,0,0,0,0,0,0,0,0,0,0,0,0,0,0,0,0,0,0,0,0,0,0,0,0,0,0,0,0,0,0,0,0,0,0,0,0,0,0,0,0,0,0,0,0,0,0,0,0,0,0,0,0,0,0,0,0,0,0,0,0,0,0,0,0,0,0,0,0,0,0,0,0,0,0,0,0,0,0,0,0,0,0,0,0,0,0,0,0,0,0,0,0,0,0,0,0,0,0,0,0,0,0,0,0,0,0,0,0,0,0,0,0,0,0,0,0,0,0,0,0,0,0,0,0,0,0,0,0,0,0,0,0,0,0,0,0]},{"id":4,"name":"objects","type":"objectgroup","visible":true,"opacity":1,"x":0,"y":0,"draworder":"topdown","objects":[{"id":1,"name":"to_entrance","type":"warp","x":144,"y":208,"width":32,"height":16,"rotation":0,"visible":true,"properties":[{"name":"map","type":"string","value":"dungeon2_1"},{"name":"spawn","type":"string","value":"north"}]},{"id":2,"name":"to_west","type":"warp","x":0,"y":96,"width":16,"height":32,"rotation":0,"visible":true,"properties":[{"name":"map","type":"string","value":"dungeon2_3"},{"name":"spawn","type":"string","value":"east"}]},{"id":3,"name":"to_east","type":"warp","x":304,"y":96,"width":16,"height":32,"rotation":0,"visible":true,"properties":[{"name":"map","type":"string","value":"dungeon2_4"},{"name":"spawn","type":"string","value":"west"}]},{"id":4,"name":"to_boss","type":"warp","x":144,"y":0,"width":32,"height":16,"rotation":0,"visible":true,"properties":[{"name":"map","type":"string","value":"dungeon2_boss"},{"name":"spawn","type":"string","value":"south"}]},{"id":5,"name":"EastDoor","type":"door","x":288,"y":96,"width":16,"height":32,"rotation":0,"visible":true,"properties":[{"name":"lock","type":"string","value":"small_key"}]},{"id":6,"name":"BossDoor","type":"door","x":144,"y":16,"width":32,"height":16,"rotation":0,"visible":true,"properties":[{"name":"lock","type":"string","value":"boss_key"}]},{"id":7,"name":"south","type":"spawn","x":160,"y":192,"width":0,"height":0,"rotation":0,"visible":true,"point":true,"properties":[{"name":"facing","type":"string","value":"up"}]},{"id":8,"name":"west","type":"spawn","x":40,"y":112,"width":0,"height":0,"rotation":0,"visible":true,"point":true,"properties":[{"name":"facing","type":"string","value":"right"}]},{"id":9,"name":"east","type":"spawn","x":272,"y":112,"width":0,"height":0,"rotation":0,"visible":true,"point":true,"properties":[{"name":"facing","type":"string","value":"left"}]},{"id":10,"name":"north","type":"spawn","x":160,"y":56,"width":0,"height":0,"rotation":0,"visible":true,"point":true,"properties":[{"name":"facing","type":"string","value":"down"}]},{"id":11,"name":"Brazier","type":"light","x":56,"y":56,"width":0,"height":0,"rotation":0,"visible":true,"point":true,"properties":[{"name":"radius","type":"int","value":30}]},{"id":12,"name":"Brazier","type":"light","x":264,"y":56,"width":0,"height":0,"rotation":0,"visible":true,"point":true,"properties":[{"name":"radius","type":"int","value":30}]},{"id":13,"name":"Brazier","type":"light","x":56,"y":168,"width":0,"height":0,"rotation":0,"visible":true,"point":true,"properties":[{"name":"radius","type":"int","value":30}]},{"id":14,"name":"Brazier","type":"light","x":264,"y":168,"width":0,"height":0,"rotation":0,"visible":true,"point":true,"properties":[{"name":"radius","type":"int","value":30}]},{"id":15,"name":"Wisp","type":"enemy","x":72,"y":120,"width":0,"height":0,"rotation":0,"visible":true,"point":true,"properties":[{"name":"enemy","type":"string","value":"wisp"}]},{"id":16,"name":"Wisp","type":"enemy","x":248,"y":184,"width":0,"height":0,"rotation":0,"visible":true,"point":true,"properties":[{"name":"enemy","type":"string","value":"wisp"}]},{"id":17,"name":"Knight","type":"enemy","x":200,"y":184,"width":0,"height":0,"rotation":0,"visible":true,"point":true,"properties":[{"name":"enemy","type":"string","value":"knight"}]},{"id":18,"name":"Pot","type":"pot","x":24,"y":200,"width":0,"height":0,"rotation":0,"visible":true,"point":true,"properties":[]},{"id":19,"name":"Pot","type":"pot","x":296,"y":200,"width":0,"height":0,"rotation":0,"visible":true,"point":true,"properties":[]}]}],"nextlayerid":5,"nextobjectid":20}