{"type":"map","version":"1.10","tiledversion":"1.10.2","orientation":"orthogonal","renderorder":"right-down","width":20,"height":14,"tilewidth":16,"tileheight":16,"infinite":false,"compressionlevel":-1,"tilesets":[{"firstgid":1,"source":"../assets/tilesets/placeholder.tsj"}],"layers":[{"id":1,"name":"ground","type":"tilelayer","visible":true,"opacity":1,"x":0,"y":0,"width":20,"height":14,"data":[46,46,46,46,46,46,46,46,45,46,46,46,45,46,46,46,46,46,46,45,46,46,46,46,46,46,46,46,46,46,46,46,46,46,46,46,46,46,46,46,46,46,46,46,46,46,46,46,46,46,46,46,46,46,46,46,46,46,46,46,46,46,46,45,45,45,45,45,45,45,45,45,45,45,45,45,45,46,46,46,46,46,46,45,45,45,45,45,45,45,45,45,45,45,45,45,45,46,46,46,45,46,46,45,45,45,45,45,45,45,45,45,45,45,45,45,45,46,46,46,46,46,46,45,45,45,45,45,45,45,45,45,45,45,45,45,45,46,46,46,46,46,45,45,45,45,45,45,45,45,45,45,45,45,45,45,45,46,46,46,46,46,46,45,45,45,45,45,45,45,45,45,45,45,45,45,45,46,46,46,46,46,46,45,45,45,45,45,45,45,45,45,45,45,45,45,45,46,45,46,46,46,46,45,45,45,45,45,45,45,45,45,45,45,45,45,45,46,46,46,46,46,46,46,46,46,46,46,46,46,46,46,46,46,46,46,46,46,45,46,46,46,46,46,46,46,46,46,46,46,46,46,46,46,46,46,46,46,46,46,46,46,46,46,46,46,46,46,46,46,46,46,46,46,45,46,46,46,45,46]},{"id":2,"name":"walls","type":"tilelayer","visible":true,"opacity":1,"x":0,"y":0,"width":20,"height":14,"data":[48,48,48,48,48,48,48,48,48,0,0,48,48,48,48,48,48,48,48,48,48,47,47,47,47,47,47,47,47,0,0,47,47,47,47,47,47,47,47,48,48,0,0,0,0,0,0,0,0,0,0,0,0,0,0,0,0,0,0,48,48,0,0,0,0,0,0,0,0,0,0,0,0,0,0,0,0,0,0,48,48,0,0,0,0,0,0,0,0,0,0,0,0,0,0,0,0,0,0,48,48,0,0,0,0,0,19,0,0,0,0,0,0,19,0,0,0,0,0,48,0,0,0,0,0,0,0,0,0,0,0,0,0,0,0,0,0,0,0,0,0,0,0,0,0,0,0,0,0,0,0,0,0,0,0,0,0,0,0,0,48,0,0,0,0,0,0,0,0,0,0,0,0,0,0,0,0,0,0,48,48,0,0,0,0,0,19,0,0,0,0,0,0,19,0,0,0,0,0,48,48,0,0,0,0,0,0,0,0,0,0,0,0,0,0,0,0,0,0,48,48,0,0,0,0,0,0,0,0,0,0,0,0,0,0,0,0,0,0,48,48,0,0,0,0,0,0,0,0,0,0,0,0,0,0,0,0,0,0,48,48,48,48,48,48,48,48,48,48,0,0,48,48,48,48,48,48,48,48,48]},{"id":3,"name":"above","type":"tilelayer","visible":true,"opacity":1,"x":0,"y":0,"width":20,"height":14,"data":[0,0,0,0,0,0,0,0,0,0,0,0,0,0,0,0,0,0,0,0,0,0,0,0,0,0,0,0,0,0,0,0,0,0,0,0,0,0,0,0,0,0,0,0,0,0,0,0,0,0,0,0,0,0,0,0,0,0,0,0,0,0,0,0,0,0,0,0,0,0,0,0,0,0,0,0,0,0,0,0,0,0,0,0,0,0,0,0,0,0,0,0,0,0,0,0,0,0,0,0,0,0,0,0,0,0,0,0,0,0,0,0,0,0,0,0,0,0,0,0,0,0,0,0,0,0,0,0,0,0,0,0,0,0,0,0,0,0,0,0,0,0,0,0,0,0,0,0,0,0,0,0,0,0,0,0,0,0,0,0,0,0,0,0,0,0,0,0,0,0,0,0,0,0,0,0,0,0,0,0,0,0,0,0,0,0,0,0,0,0,0,0,0,0,0,0,0,0,0,0,0,0,0,0,0,0,0,0,0,0,0,0,0,0,0,0,0,0,0,0,0,0,0,0,0,0,0,0,0,0,0,0,0,0,0,0,0,0,0,0,0,0,0,0,0,0,0,0,0,0,0,0,0,0,0,0,0,0,0,0,0,0,0,0,0,0,0,0,0,0,0,0,0,0,0,0,0,0,0,0]},{"id":4,"name":"objects","type":"objectgroup","visible":true,"opacity":1,"x":0,"y":0,"draworder":"topdown","objects":[{"id":1,"name":"to_entrance","type":"warp","x":144,"y":208,"width":32,"height":16,"rotation":0,"visible":true,"properties":[{"name":"map","type":"string","value":"dungeon3_1"},{"name":"spawn","type":"string","value":"north"}]},{"id":2,"name":"to_west","type":"warp","x":0,"y":96,"width":16,"height":32,"rotation":0,"visible":true,"properties":[{"name":"map","type":"string","value":"dungeon3_3"},{"name":"spawn","type":"string","value":"east"}]},{"id":3,"name":"to_east","type":"warp","x":304,"y":96,"width":16,"height":32,"rotation":0,"visible":true,"properties":[{"name":"map","type":"string","value":"dungeon3_4"},{"name":"spawn","type":"string","value":"west"}]},{"id":4,"name":"to_boss","type":"warp","x":144,"y":0,"width":32,"height":16,"rotation":0,"visible":true,"properties":[{"name":"map","type":"string","value":"dungeon3_boss"},{"name":"spawn","type":"string","value":"south"}]},{"id":5,"name":"EastCrack","type":"crack","x":288,"y":96,"width":16,"height":32,"rotation":0,"visible":true,"properties":[{"name":"text","type":"string","value":"Cracked ice blocks the way east."}]},{"id":6,"name":"BossDoor","type":"door","x":144,"y":16,"width":32,"height":16,"rotation":0,"visible":true,"properties":[{"name":"lock","type":"string","value":"boss_key"}]},{"id":7,"name":"south","type":"spawn","x":160,"y":192,"width":0,"height":0,"rotation":0,"visible":true,"point":true,"properties":[{"name":"facing","type":"string","value":"up"}]},{"id":8,"name":"west","type":"spawn","x":40,"y":112,"width":0,"height":0,"rotation":0,"visible":true,"point":true,"properties":[{"name":"facing","type":"string","value":"right"}]},{"id":9,"name":"east","type":"spawn","x":272,"y":112,"width":0,"height":0,"rotation":0,"visible":true,"point":true,"properties":[{"name":"facing","type":"string","value":"left"}]},{"id":10,"name":"north","type":"spawn","x":160,"y":56,"width":0,"height":0,"rotation":0,"visible":true,"point":true,"properties":[{"name":"facing","type":"string","value":"down"}]},{"id":11,"name":"Yeti","type":"enemy","x":88,"y":56,"width":0,"height":0,"rotation":0,"visible":true,"point":true,"properties":[{"name":"enemy","type":"string","value":"yeti"}]},{"id":12,"name":"Yeti","type":"enemy","x":248,"y":168,"width":0,"height":0,"rotation":0,"visible":true,"point":true,"properties":[{"name":"enemy","type":"string","value":"yeti"}]},{"id":13,"name":"Wisp","type":"enemy","x":168,"y":120,"width":0,"height":0,"rotation":0,"visible":true,"point":true,"properties":[{"name":"enemy","type":"string","value":"frost_wisp"}]},{"id":14,"name":"Pot","type":"pot","x":24,"y":200,"width":0,"height":0,"rotation":0,"visible":true,"point":true,"properties":[]},{"id":15,"name":"Pot","type":"pot","x":296,"y":200,"width":0,"height":0,"rotation":0,"visible":true,"point":true,"properties":[]}]}],"nextlayerid":5,"nextobjectid":16}