{"type":"map","version":"1.10","tiledversion":"1.10.2","orientation":"orthogonal","renderorder":"right-down","width":18,"height":14,"tilewidth":16,"tileheight":16,"infinite":false,"compressionlevel":-1,"tilesets":[{"firstgid":1,"source":"../assets/tilesets/placeholder.tsj"}],"layers":[{"id":1,"name":"ground","type":"tilelayer","visible":true,"opacity":1,"x":0,"y":0,"width":18,"height":14,"data":[46,46,46,46,46,46,45,46,46,46,46,46,46,46,46,46,46,46,46,46,46,46,46,46,46,46,46,46,46,46,46,46,46,46,46,46,46,46,46,46,46,45,50,50,50,46,46,46,46,46,46,46,46,46,46,46,46,45,46,46,50,50,50,46,46,46,46,46,46,46,46,46,46,46,46,46,46,46,50,50,50,46,46,45,46,46,46,46,46,46,46,46,46,46,46,46,50,50,50,46,45,46,46,46,46,46,46,46,46,46,46,46,46,46,50,50,50,46,46,46,46,46,46,46,46,46,46,46,46,46,46,46,50,50,50,46,46,46,46,46,46,46,46,45,46,46,46,46,46,46,50,50,50,46,46,46,46,46,46,46,46,46,46,46,46,46,46,46,50,50,50,46,46,46,45,46,46,46,46,46,46,46,46,46,46,46,50,50,50,46,46,46,46,46,46,46,46,46,45,46,46,46,46,46,50,50,50,46,46,46,46,46,46,46,46,46,46,46,45,46,46,46,50,50,50,46,46,46,46,46,46,46,46,46,46,46,46,46,46,46,46,46,46,46,46,46,46,46,46,46,46,45]},{"id":2,"name":"walls","type":"tilelayer","visible":true,"opacity":1,"x":0,"y":0,"width":18,"height":14,"data":[48,48,48,48,48,48,48,48,48,48,48,48,48,48,48,48,48,48,48,47,47,47,47,47,47,47,47,47,47,47,47,47,47,47,47,48,48,0,0,0,0,0,0,0,0,0,0,0,0,0,0,0,0,48,48,0,0,0,0,0,0,0,0,0,0,0,0,0,0,0,0,48,48,0,0,0,0,0,0,0,0,0,0,0,0,0,0,0,0,48,48,0,0,0,0,0,0,0,0,0,0,0,0,0,0,0,0,48,48,0,0,0,0,0,0,0,0,0,0,0,0,0,0,0,0,0,48,0,0,0,0,0,0,0,0,0,0,0,0,0,0,0,0,0,48,0,0,0,0,0,0,0,0,0,0,0,0,0,0,0,0,48,48,0,0,0,0,0,0,0,0,0,0,0,0,0,0,0,0,48,48,0,0,0,0,0,0,0,0,0,0,0,0,0,0,0,0,48,48,0,0,0,0,0,0,0,0,0,0,0,0,0,0,0,0,48,48,0,0,0,0,0,0,0,0,0,0,0,0,0,0,0,0,48,48,48,48,48,48,48,48,48,48,48,48,48,48,48,48,48,48,48]},{"id":3,"name":"above","type":"tilelayer","visible":true,"opacity":1,"x":0,"y":0,"width":18,"height":14,"data":[0,0,0,0,0,0,0,0,0,0,0,0,0,0,0,0,0,0,0,0,0,0,0,0,0,0,0,0,0,0,0,0,0,0,0,0,0,0,0,0,0,0,0,0,0,0,0,0,0,0,0,0,0,0,0,0,0,0,0,0,0,0,0,0,0,0,0,0,0,0,0,0,0,0,0,0,0,0,0,0,0,0,0,0,0,0,0,0,0,0,0,0,0,0,0,0,0,0,0,0,0,0,0,0,0,0,0,0,0,0,0,0,0,0,0,0,0,0,0,0,0,0,0,0,0,0,0,0,0,0,0,0,0,0,0,0,0,0,0,0,0,0,0,0,0,0,0,0,0,0,0,0,0,0,0,0,0,0,0,0,0,0,0,0,0,0,0,0,0,0,0,0,0,0,0,0,0,0,0,0,0,0,0,0,0,0,0,0,0,0,0,0,0,0,0,0,0,0,0,0,0,0,0,0,0,0,0,0,0,0,0,0,0,0,0,0,0,0,0,0,0,0,0,0,0,0,0,0,0,0,0,0,0,0,0,0,0,0,0,0,0,0,0,0,0,0,0,0,0,0,0,0]},{"id":4,"name":"objects","type":"objectgroup","visible":true,"opacity":1,"x":0,"y":0,"draworder":"topdown","objects":[{"id":1,"name":"to_hall","type":"warp","x":272,"y":96,"width":16,"height":32,"rotation":0,"visible":true,"properties":[{"name":"map","type":"string","value":"dungeon3_2"},{"name":"spawn","type":"string","value":"west"}]},{"id":2,"name":"east","type":"spawn","x":256,"y":112,"width":0,"height":0,"rotation":0,"visible":true,"point":true,"properties":[{"name":"facing","type":"string","value":"left"}]},{"id":3,"name":"Hookshot","type":"chest","x":200,"y":56,"width":0,"height":0,"rotation":0,"visible":true,"point":true,"properties":[{"name":"tool","type":"string","value":"hookshot"}]},{"id":4,"name":"Post","type":"hook","x":56,"y":120,"width":0,"height":0,"rotation":0,"visible":true,"point":true,"properties":[]},{"id":5,"name":"Post","type":"hook","x":184,"y":168,"width":0,"height":0,"rotation":0,"visible":true,"point":true,"properties":[]},{"id":6,"name":"Herb","type":"item","x":40,"y":56,"width":0,"height":0,"rotation":0,"visible":true,"point":true,"properties":[{"name":"item","type":"string","value":"frost_herb"}]},{"id":7,"name":"Chest","type":"chest","x":40,"y":184,"width":0,"height":0,"rotation":0,"visible":true,"point":true,"properties":[{"name":"item","type":"string","value":"potion"},{"name":"count","type":"int","value":2}]},{"id":8,"name":"IceSlime","type":"enemy","x":216,"y":152,"width":0,"height":0,"rotation":0,"visible":true,"point":true,"properties":[{"name":"enemy","type":"string","value":"ice_slime"}]},{"id":9,"name":"Yeti","type":"enemy","x":216,"y":184,"width":0,"height":0,"rotation":0,"visible":true,"point":true,"properties":[{"name":"enemy","type":"string","value":"yeti"}]},{"id":10,"name":"Sign","type":"sign","x":232,"y":48,"width":0,"height":0,"rotation":0,"visible":true,"point":true,"properties":[{"name":"text","type":"string","value":"Fire the Hookshot at a post to fly across water and pits."}]}]}],"nextlayerid":5,"nextobjectid":11}