{"type":"map","version":"1.10","tiledversion":"1.10.2","orientation":"orthogonal","renderorder":"right-down","width":10,"height":8,"tilewidth":16,"tileheight":16,"infinite":false,"compressionlevel":-1,"tilesets":[{"firstgid":1,"source":"../assets/tilesets/placeholder.tsj"}],"layers":[{"id":1,"name":"ground","type":"tilelayer","visible":true,"opacity":1,"x":0,"y":0,"width":10,"height":8,"data":[15,15,15,15,15,15,15,15,15,15,15,15,15,15,15,15,15,15,15,15,15,15,15,15,15,15,15,15,15,15,15,15,15,15,15,15,15,15,15,15,15,15,15,15,15,15,15,15,15,15,15,15,15,15,15,15,15,15,15,15,15,15,15,15,15,15,15,15,15,15,15,15,15,15,32,15,15,15,15,15]},{"id":2,"name":"walls","type":"tilelayer","visible":true,"opacity":1,"x":0,"y":0,"width":10,"height":8,"data":[26,26,26,26,26,26,26,26,26,26,26,25,31,25,25,25,25,31,25,26,26,28,0,0,0,0,29,0,29,26,26,0,0,0,0,0,0,0,0,26,26,0,0,0,0,0,0,0,29,26,26,0,0,0,0,0,0,0,0,26,26,0,0,0,0,0,0,0,0,26,26,26,26,26,0,26,26,26,26,26]},{"id":3,"name":"above","type":"tilelayer","visible":true,"opacity":1,"x":0,"y":0,"width":10,"height":8,"data":[0,0,0,0,0,0,0,0,0,0,0,0,0,0,0,0,0,0,0,0,0,0,0,0,0,0,0,0,0,0,0,0,0,0,0,0,0,0,0,0,0,0,0,0,0,0,0,0,0,0,0,0,0,0,0,0,0,0,0,0,0,0,0,0,0,0,0,0,0,0,0,0,0,0,0,0,0,0,0,0]},{"id":4,"name":"objects","type":"objectgroup","visible":true,"opacity":1,"x":0,"y":0,"draworder":"topdown","objects":[{"id":1,"name":"entrance","type":"spawn","x":72,"y":104,"width":0,"height":0,"rotation":0,"visible":true,"point":true,"properties":[{"name":"facing","type":"string","value":"up"}]},{"id":2,"name":"exit","type":"warp","x":64,"y":112,"width":16,"height":16,"rotation":0,"visible":true,"properties":[{"name":"map","type":"string","value":"town2"},{"name":"spawn","type":"string","value":"from_inn"}]},{"id":3,"name":"Innkeeper","type":"healer","x":64,"y":49.6,"width":0,"height":0,"rotation":0,"visible":true,"point":true,"properties":[{"name":"sprite","type":"string","value":"npc_healer"},{"name":"dialogue","type":"string","value":"innkeeper"},{"name":"facing","type":"string","value":"down"}]},{"id":4,"name":"Traveler","type":"npc","x":120,"y":88,"width":0,"height":0,"rotation":0,"visible":true,"point":true,"properties":[{"name":"sprite","type":"string","value":"npc_villager"},{"name":"dialogue","type":"string","value":"traveler"},{"name":"facing","type":"string","value":"left"}]}]}],"nextlayerid":5,"nextobjectid":5}