{"type":"map","version":"1.10","tiledversion":"1.10.2","orientation":"orthogonal","renderorder":"right-down","width":26,"height":18,"tilewidth":16,"tileheight":16,"infinite":false,"compressionlevel":-1,"tilesets":[{"firstgid":1,"source":"../assets/tilesets/placeholder.tsj"}],"layers":[{"id":1,"name":"ground","type":"tilelayer","visible":true,"opacity":1,"x":0,"y":0,"width":26,"height":18,"data":[45,46,46,46,46,46,46,46,46,45,46,46,46,46,46,46,46,46,46,46,46,46,46,46,46,46,46,46,46,46,46,46,46,46,46,46,46,46,46,46,46,46,46,45,46,46,46,46,46,46,45,46,46,46,46,46,46,46,46,46,46,46,46,46,46,46,46,46,46,46,45,46,46,46,46,46,46,46,46,46,45,46,46,46,46,46,46,46,46,46,46,13,46,46,46,46,46,45,46,46,46,46,46,46,46,46,46,46,46,46,46,46,46,46,46,46,3,3,46,46,46,46,46,46,46,46,46,46,46,46,46,46,46,46,8,46,46,46,46,46,46,46,3,3,46,46,46,46,46,46,8,46,46,46,46,46,46,46,45,46,46,46,45,46,46,46,46,46,3,3,46,46,46,46,46,46,46,46,46,46,46,46,46,46,46,46,46,46,46,46,46,20,20,20,20,20,20,20,20,46,46,46,46,46,46,46,46,46,46,46,46,46,46,45,46,45,46,20,20,20,20,20,20,20,20,46,46,46,46,45,46,46,46,46,46,46,3,3,3,3,3,3,3,20,20,20,20,20,20,20,20,3,3,3,3,3,3,3,46,46,46,46,45,46,46,46,46,46,46,20,20,20,20,20,20,20,20,46,46,46,45,46,46,46,46,46,46,46,20,20,20,20,20,20,46,20,20,20,20,20,20,20,20,46,46,46,46,46,46,46,46,46,46,46,20,20,20,20,20,20,46,46,46,46,3,3,46,46,46,46,46,46,46,46,46,46,46,45,46,46,20,20,20,20,20,20,46,46,46,46,3,3,46,46,46,46,46,46,45,45,45,46,46,46,46,45,20,20,20,20,20,20,45,46,46,46,3,3,46,46,46,46,46,46,45,45,45,46,45,46,46,46,46,45,46,46,46,46,46,46,46,46,3,3,46,46,46,46,45,46,46,46,46,46,46,46,46,46,46,46,46,46,46,46,46,46,46,46,3,3,46,46,45,46,46,46,46,45,46,45,46,46,46,46,46,46,46,46,46,46,46,46,46,46,3,3,46,46,46,46,46,46,45,46,46,46,46,46]},{"id":2,"name":"walls","type":"tilelayer","visible":true,"opacity":1,"x":0,"y":0,"width":26,"height":18,"data":[49,49,49,49,49,49,49,49,49,49,49,49,49,49,49,49,49,49,49,49,49,49,49,49,49,49,49,0,0,0,0,0,0,0,0,0,48,48,48,48,48,48,0,0,0,0,0,0,0,0,0,49,49,0,7,7,7,7,7,7,0,0,47,47,47,47,47,47,0,0,7,7,7,7,7,7,0,49,49,0,7,7,7,7,7,7,0,0,47,47,47,0,47,47,0,0,7,7,7,7,7,7,0,49,49,0,6,6,6,6,6,6,0,0,0,0,0,0,0,0,0,0,6,6,6,6,6,6,0,49,49,0,6,6,0,6,6,6,0,0,0,0,0,0,0,0,0,0,6,6,0,6,6,6,0,49,49,0,0,0,0,0,0,0,0,0,0,0,0,0,0,0,0,0,0,0,0,0,0,0,0,49,49,0,0,0,0,0,0,0,0,0,0,0,0,0,0,0,0,0,0,0,0,0,0,0,0,49,49,0,0,0,0,0,0,0,0,0,0,0,0,0,0,0,0,0,0,0,0,0,0,0,0,49,49,0,0,0,0,0,0,0,0,0,0,0,0,0,0,0,0,0,0,0,0,0,0,0,0,49,49,0,0,0,0,0,0,0,0,0,0,0,0,0,0,0,0,0,0,0,0,0,0,0,0,49,49,0,19,0,0,0,0,19,0,0,0,0,0,0,0,0,0,0,0,0,0,0,0,0,0,49,49,0,0,0,0,0,0,0,0,0,0,0,0,0,0,0,0,0,0,48,48,48,48,48,0,49,49,0,0,0,0,0,0,0,0,0,0,0,0,0,0,0,0,0,0,47,0,0,0,47,0,49,49,0,0,0,0,0,0,0,0,0,0,0,0,0,0,0,0,0,0,47,0,0,0,47,0,49,49,0,0,0,0,0,0,0,0,0,0,0,0,0,0,0,0,0,0,47,47,0,47,47,0,49,49,0,0,0,0,0,0,0,0,0,0,0,0,0,0,0,0,0,0,0,0,0,0,0,0,49,49,49,49,49,49,49,49,49,49,49,49,49,0,0,49,49,49,49,49,49,49,49,49,49,49,49]},{"id":3,"name":"above","type":"tilelayer","visible":true,"opacity":1,"x":0,"y":0,"width":26,"height":18,"data":[0,0,0,0,0,0,0,0,0,0,0,0,0,0,0,0,0,0,0,0,0,0,0,0,0,0,0,0,0,0,0,0,0,0,0,0,0,0,0,0,0,0,0,0,0,0,0,0,0,0,0,0,0,0,0,0,0,0,0,0,0,0,0,0,0,0,0,0,0,0,0,0,0,0,0,0,0,0,0,0,0,0,0,0,0,0,0,0,0,0,0,0,0,0,0,0,0,0,0,0,0,0,0,0,0,0,0,0,0,0,0,0,0,0,0,0,0,0,0,0,0,0,0,0,0,0,0,0,0,0,0,0,0,0,0,0,0,0,0,0,0,0,0,0,0,0,0,0,0,0,0,0,0,0,0,0,0,0,0,0,0,0,0,0,0,0,0,0,0,0,0,0,0,0,0,0,0,0,0,0,0,0,0,0,0,0,0,0,0,0,0,0,0,0,0,0,0,0,0,0,0,0,0,0,0,0,0,0,0,0,0,0,0,0,0,0,0,0,0,0,0,0,0,0,0,0,0,0,0,0,0,0,0,0,0,0,0,0,0,0,0,0,0,0,0,0,0,0,0,0,0,0,0,0,0,0,0,0,0,0,0,0,0,0,0,0,0,0,0,0,0,0,0,0,0,0,0,0,0,0,0,0,0,0,0,0,0,0,0,0,0,0,0,0,0,0,0,0,0,0,0,0,0,0,0,0,0,0,0,0,0,0,0,0,0,0,0,0,0,0,0,0,0,0,0,0,0,0,0,0,0,0,0,0,0,0,0,0,0,0,0,0,0,0,0,0,0,0,0,0,0,0,0,0,0,0,0,0,0,0,0,0,0,0,0,0,0,0,0,0,0,0,0,0,0,0,0,0,0,0,0,0,0,0,0,0,0,0,0,0,0,0,0,0,0,0,0,0,0,0,0,0,0,0,0,0,0,0,0,0,0,0,0,0,0,0,0,0,0,0,0,0,0,0,0,0,0,0,0,0,0,0,0,0,0,0,0,0,0,0,0,0,0,0,0,0,0,0,0,0,0,0,0,0,0,0,0,0,0,0,0,0,0,0,0,0,0,0]},{"id":4,"name":"objects","type":"objectgroup","visible":true,"opacity":1,"x":0,"y":0,"draworder":"topdown","objects":[{"id":1,"name":"to_cavern","type":"warp","x":208,"y":48,"width":16,"height":16,"rotation":0,"visible":true,"properties":[{"name":"map","type":"string","value":"dungeon3_1"},{"name":"spawn","type":"string","value":"entrance"}]},{"id":2,"name":"from_dungeon","type":"spawn","x":216,"y":88,"width":0,"height":0,"rotation":0,"visible":true,"point":true,"properties":[{"name":"facing","type":"string","value":"down"}]},{"id":3,"name":"Sign","type":"sign","x":248,"y":80,"width":0,"height":0,"rotation":0,"visible":true,"point":true,"properties":[{"name":"text","type":"string","value":"FROST CAVERN\\nThe ice is slippery. Watch your step!"}]},{"id":4,"name":"to_crypt","type":"warp","x":192,"y":272,"width":32,"height":16,"rotation":0,"visible":true,"properties":[{"name":"map","type":"string","value":"dungeon2_boss"},{"name":"spawn","type":"string","value":"north"}]},{"id":5,"name":"south","type":"spawn","x":208,"y":256,"width":0,"height":0,"rotation":0,"visible":true,"point":true,"properties":[{"name":"facing","type":"string","value":"up"}]},{"id":6,"name":"to_inn","type":"warp","x":64,"y":80,"width":16,"height":16,"rotation":0,"visible":true,"properties":[{"name":"map","type":"string","value":"town3_inn"},{"name":"spawn","type":"string","value":"entrance"}]},{"id":7,"name":"from_inn","type":"spawn","x":72,"y":113.6,"width":0,"height":0,"rotation":0,"visible":true,"point":true,"properties":[{"name":"facing","type":"string","value":"down"}]},{"id":8,"name":"Sign","type":"sign","x":120,"y":112,"width":0,"height":0,"rotation":0,"visible":true,"point":true,"properties":[{"name":"text","type":"string","value":"INN"}]},{"id":9,"name":"to_shop","type":"warp","x":320,"y":80,"width":16,"height":16,"rotation":0,"visible":true,"properties":[{"name":"map","type":"string","value":"town3_shop"},{"name":"spawn","type":"string","value":"entrance"}]},{"id":10,"name":"from_shop","type":"spawn","x":328,"y":113.6,"width":0,"height":0,"rotation":0,"visible":true,"point":true,"properties":[{"name":"facing","type":"string","value":"down"}]},{"id":11,"name":"Sign","type":"sign","x":376,"y":112,"width":0,"height":0,"rotation":0,"visible":true,"point":true,"properties":[{"name":"text","type":"string","value":"GENERAL STORE\\nBombs sold here!"}]},{"id":12,"name":"Monk","type":"teacher","x":80,"y":200,"width":0,"height":0,"rotation":0,"visible":true,"point":true,"properties":[{"name":"sprite","type":"string","value":"npc_monk"},{"name":"teacher","type":"string","value":"town3_teacher"},{"name":"facing","type":"string","value":"down"}]},{"id":13,"name":"Light","type":"light","x":80,"y":200,"width":0,"height":0,"rotation":0,"visible":true,"point":true,"properties":[{"name":"radius","type":"int","value":30}]},{"id":14,"name":"Crack","type":"crack","x":336,"y":240,"width":16,"height":16,"rotation":0,"visible":true,"properties":[{"name":"text","type":"string","value":"The ice wall is cracked. A bomb might do it."}]},{"id":15,"name":"Secret","type":"chest","x":344,"y":224,"width":0,"height":0,"rotation":0,"visible":true,"point":true,"properties":[{"name":"gold","type":"int","value":60},{"name":"item","type":"string","value":"bomb"},{"name":"count","type":"int","value":3}]},{"id":16,"name":"Guard","type":"npc","x":248,"y":128,"width":0,"height":0,"rotation":0,"visible":true,"point":true,"properties":[{"name":"sprite","type":"string","value":"npc_guard"},{"name":"dialogue","type":"string","value":"town3_guard"},{"name":"facing","type":"string","value":"down"}]},{"id":17,"name":"Explorer","type":"npc","x":168,"y":136,"width":0,"height":0,"rotation":0,"visible":true,"point":true,"properties":[{"name":"sprite","type":"string","value":"npc_explorer"},{"name":"dialogue","type":"string","value":"explorer"},{"name":"facing","type":"string","value":"down"}]},{"id":18,"name":"Hunter","type":"npc","x":280,"y":184,"width":0,"height":0,"rotation":0,"visible":true,"point":true,"properties":[{"name":"sprite","type":"string","value":"npc_farmer"},{"name":"dialogue","type":"string","value":"hunter"},{"name":"facing","type":"string","value":"left"}]},{"id":19,"name":"Kid","type":"npc","x":136,"y":168,"width":0,"height":0,"rotation":0,"visible":true,"point":true,"properties":[{"name":"sprite","type":"string","value":"npc_kid"},{"name":"dialogue","type":"string","value":"town3_kid"},{"name":"wander","type":"bool","value":true}]},{"id":20,"name":"Arrival","type":"trigger","x":176,"y":208,"width":64,"height":32,"rotation":0,"visible":true,"properties":[{"name":"cutscene","type":"string","value":"town3_arrival"}]},{"id":21,"name":"Pot","type":"pot","x":24,"y":24,"width":0,"height":0,"rotation":0,"visible":true,"point":true,"properties":[]},{"id":22,"name":"Pot","type":"pot","x":392,"y":264,"width":0,"height":0,"rotation":0,"visible":true,"point":true,"properties":[]}]}],"nextlayerid":5,"nextobjectid":23}