{"type":"map","version":"1.10","tiledversion":"1.10.2","orientation":"orthogonal","renderorder":"right-down","width":17,"height":11,"tilewidth":16,"tileheight":16,"infinite":false,"compressionlevel":-1,"tilesets":[{"firstgid":1,"source":"../assets/tilesets/placeholder.tsj"}],"layers":[{"id":1,"name":"ground","type":"tilelayer","visible":true,"opacity":1,"x":0,"y":0,"width":17,"height":11,"data":[33,33,33,33,33,3,3,33,33,3,33,33,33,33,33,33,33,33,33,33,33,33,33,33,33,33,33,33,33,33,33,3,33,33,33,33,33,33,33,33,33,33,33,33,33,33,33,33,33,33,33,33,33,33,33,33,33,33,33,33,3,33,3,33,33,33,33,33,33,33,33,39,39,39,33,33,33,33,33,3,33,33,3,33,33,33,3,33,39,39,39,33,33,33,33,33,33,33,33,3,33,33,3,33,33,33,33,33,33,33,33,33,33,33,33,33,33,33,33,33,3,33,33,33,3,33,3,3,33,33,33,33,33,33,33,33,33,33,33,33,33,33,33,33,33,33,33,33,33,33,33,33,33,33,33,33,33,33,33,33,3,33,33,33,33,33,33,33,33,33,33,33,33,33,33,33,33,33,33,3,33,33,33,33,33,33,33]},{"id":2,"name":"walls","type":"tilelayer","visible":true,"opacity":1,"x":0,"y":0,"width":17,"height":11,"data":[37,37,37,37,37,37,37,37,37,37,37,37,37,37,37,37,37,37,36,36,36,36,36,36,36,36,36,36,36,36,36,36,36,37,37,0,0,0,0,0,0,0,0,0,0,0,0,0,0,0,37,37,0,0,19,0,0,19,0,0,19,0,0,0,0,0,0,37,37,0,0,0,0,0,0,0,0,0,0,0,0,0,0,0,0,37,0,0,0,0,0,0,0,0,0,0,0,0,0,0,0,0,37,0,0,0,0,0,0,0,0,0,0,0,0,0,0,0,37,37,0,0,19,0,0,19,0,0,19,0,0,0,0,0,0,37,37,0,0,0,0,0,0,0,0,0,0,0,0,0,0,0,37,37,0,0,0,0,0,0,0,0,0,0,0,0,0,0,0,37,37,37,37,37,37,37,37,37,37,37,37,37,37,37,37,37,37]},{"id":3,"name":"above","type":"tilelayer","visible":true,"opacity":1,"x":0,"y":0,"width":17,"height":11,"data":[0,0,0,0,0,0,0,0,0,0,0,0,0,0,0,0,0,0,0,0,0,0,0,0,0,0,0,0,0,0,0,0,0,0,0,0,0,0,0,0,0,0,0,0,0,0,0,0,0,0,0,0,0,0,0,0,0,0,0,0,0,0,0,0,0,0,0,0,0,0,0,0,0,0,0,0,0,0,0,0,0,0,0,0,0,0,0,0,0,0,0,0,0,0,0,0,0,0,0,0,0,0,0,0,0,0,0,0,0,0,0,0,0,0,0,0,0,0,0,0,0,0,0,0,0,0,0,0,0,0,0,0,0,0,0,0,0,0,0,0,0,0,0,0,0,0,0,0,0,0,0,0,0,0,0,0,0,0,0,0,0,0,0,0,0,0,0,0,0,0,0,0,0,0,0,0,0,0,0,0,0,0,0,0,0,0,0]},{"id":4,"name":"objects","type":"objectgroup","visible":true,"opacity":1,"x":0,"y":0,"draworder":"topdown","objects":[{"id":1,"name":"to_dungeon4_20","type":"warp","x":256,"y":64,"width":16,"height":32,"rotation":0,"visible":true,"properties":[{"name":"map","type":"string","value":"dungeon4_20"},{"name":"spawn","type":"string","value":"west"}]},{"id":2,"name":"east","type":"spawn","x":216,"y":80,"width":0,"height":0,"rotation":0,"visible":true,"point":true,"properties":[{"name":"facing","type":"string","value":"left"}]},{"id":3,"name":"Enemy","type":"enemy","x":40,"y":88,"width":0,"height":0,"rotation":0,"visible":true,"point":true,"properties":[{"name":"enemy","type":"string","value":"wisp"}]},{"id":4,"name":"Enemy","type":"enemy","x":136,"y":136,"width":0,"height":0,"rotation":0,"visible":true,"point":true,"properties":[{"name":"enemy","type":"string","value":"wisp"}]},{"id":5,"name":"Enemy","type":"enemy","x":152,"y":136,"width":0,"height":0,"rotation":0,"visible":true,"point":true,"properties":[{"name":"enemy","type":"string","value":"sand_knight"}]},{"id":6,"name":"Ambush","type":"gate","x":240,"y":64,"width":16,"height":32,"rotation":0,"visible":true,"properties":[{"name":"mode","type":"string","value":"clear"}]},{"id":7,"name":"Pot","type":"pot","x":232,"y":40,"width":0,"height":0,"rotation":0,"visible":true,"point":true,"properties":[]},{"id":8,"name":"Pot","type":"pot","x":248,"y":40,"width":0,"height":0,"rotation":0,"visible":true,"point":true,"properties":[]},{"id":9,"name":"Torch","type":"torch","x":232,"y":152,"width":0,"height":0,"rotation":0,"visible":true,"point":true,"properties":[{"name":"lit","type":"bool","value":true},{"name":"radius","type":"int","value":56}]},{"id":10,"name":"Torch","type":"torch","x":40,"y":152,"width":0,"height":0,"rotation":0,"visible":true,"point":true,"properties":[{"name":"lit","type":"bool","value":true},{"name":"radius","type":"int","value":56}]},{"id":11,"name":"Torch","type":"torch","x":40,"y":40,"width":0,"height":0,"rotation":0,"visible":true,"point":true,"properties":[{"name":"lit","type":"bool","value":true},{"name":"radius","type":"int","value":56}]}]}],"nextlayerid":5,"nextobjectid":12}