{"type":"map","version":"1.10","tiledversion":"1.10.2","orientation":"orthogonal","renderorder":"right-down","width":16,"height":16,"tilewidth":16,"tileheight":16,"infinite":false,"compressionlevel":-1,"tilesets":[{"firstgid":1,"source":"../assets/tilesets/placeholder.tsj"}],"layers":[{"id":1,"name":"ground","type":"tilelayer","visible":true,"opacity":1,"x":0,"y":0,"width":16,"height":16,"data":[9,9,9,9,9,10,9,9,9,9,9,9,9,9,9,9,9,10,9,9,10,9,9,9,10,9,9,9,9,9,9,9,9,9,9,9,9,9,9,9,9,10,9,9,9,9,9,9,9,9,9,9,9,9,9,9,9,9,9,9,9,9,9,10,10,9,9,9,9,9,9,9,9,10,9,9,9,9,9,9,10,9,9,9,9,9,9,9,9,9,9,9,9,9,9,9,9,9,9,9,9,9,10,9,10,9,9,9,9,9,9,10,9,9,9,9,9,9,10,9,9,9,9,9,9,9,10,9,10,9,9,9,9,9,9,9,9,9,9,9,9,9,9,9,9,9,9,9,9,4,4,4,4,4,4,9,9,9,9,9,9,9,9,9,9,4,4,4,4,4,4,9,9,9,9,9,9,9,9,9,9,4,4,4,4,4,4,10,9,9,9,9,9,9,9,9,9,9,9,9,9,9,9,9,9,9,9,9,9,9,9,9,9,9,9,9,9,9,9,9,9,9,9,10,9,9,9,9,9,10,9,10,10,9,9,9,9,9,9,9,9,9,9,10,9,9,9,9,10,9,9,9,9,10,9,9]},{"id":2,"name":"walls","type":"tilelayer","visible":true,"opacity":1,"x":0,"y":0,"width":16,"height":16,"data":[12,12,12,12,12,12,12,0,0,12,12,12,12,12,12,12,12,11,11,11,11,11,11,0,0,11,11,11,11,11,11,12,12,0,0,0,0,0,0,0,0,0,0,0,0,0,0,12,12,0,0,0,0,0,0,0,0,0,0,0,0,0,0,12,12,0,0,0,0,0,0,0,0,0,0,0,0,0,0,12,12,0,0,0,0,0,0,0,0,0,0,0,0,0,0,12,0,0,0,0,0,0,0,0,0,0,0,0,0,0,0,12,0,0,0,0,0,0,0,0,0,0,0,0,0,0,0,12,12,0,0,0,0,0,0,0,0,0,0,0,0,0,0,12,12,0,0,0,0,0,0,0,0,0,0,0,0,0,0,12,12,0,0,0,0,0,0,0,0,0,0,0,0,0,0,12,12,0,0,0,0,0,0,0,0,0,0,0,0,0,0,12,12,0,0,0,0,0,0,0,0,0,0,0,0,0,0,12,12,0,0,0,0,0,0,0,0,0,0,0,0,0,0,12,12,0,0,0,0,0,0,0,0,0,0,0,0,0,0,12,12,12,12,12,12,12,12,12,12,12,12,12,12,12,12,12]},{"id":3,"name":"above","type":"tilelayer","visible":true,"opacity":1,"x":0,"y":0,"width":16,"height":16,"data":[0,0,0,0,0,0,0,0,0,0,0,0,0,0,0,0,0,0,0,0,0,0,0,0,0,0,0,0,0,0,0,0,0,0,0,0,0,0,0,0,0,0,0,0,0,0,0,0,0,0,0,0,0,0,0,0,0,0,0,0,0,0,0,0,0,0,0,0,0,0,0,0,0,0,0,0,0,0,0,0,0,0,0,0,0,0,0,0,0,0,0,0,0,0,0,0,0,0,0,0,0,0,0,0,0,0,0,0,0,0,0,0,0,0,0,0,0,0,0,0,0,0,0,0,0,0,0,0,0,0,0,0,0,0,0,0,0,0,0,0,0,0,0,0,0,0,0,0,0,0,0,0,0,0,0,0,0,0,0,0,0,0,0,0,0,0,0,0,0,0,0,0,0,0,0,0,0,0,0,0,0,0,0,0,0,0,0,0,0,0,0,0,0,0,0,0,0,0,0,0,0,0,0,0,0,0,0,0,0,0,0,0,0,0,0,0,0,0,0,0,0,0,0,0,0,0,0,0,0,0,0,0,0,0,0,0,0,0,0,0,0,0,0,0,0,0,0,0,0,0,0,0,0,0,0,0]},{"id":4,"name":"objects","type":"objectgroup","visible":true,"opacity":1,"x":0,"y":0,"draworder":"topdown","objects":[{"id":1,"name":"to_room2","type":"warp","x":0,"y":96,"width":16,"height":32,"rotation":0,"visible":true,"properties":[{"name":"map","type":"string","value":"dungeon1_2"},{"name":"spawn","type":"string","value":"east"}]},{"id":2,"name":"to_boss","type":"warp","x":112,"y":0,"width":32,"height":16,"rotation":0,"visible":true,"properties":[{"name":"map","type":"string","value":"dungeon1_boss"},{"name":"spawn","type":"string","value":"south"}]},{"id":3,"name":"west","type":"spawn","x":40,"y":112,"width":0,"height":0,"rotation":0,"visible":true,"point":true,"properties":[{"name":"facing","type":"string","value":"right"}]},{"id":4,"name":"north","type":"spawn","x":128,"y":48,"width":0,"height":0,"rotation":0,"visible":true,"point":true,"properties":[{"name":"facing","type":"string","value":"down"}]},{"id":5,"name":"Bat","type":"enemy","x":184,"y":72,"width":0,"height":0,"rotation":0,"visible":true,"point":true,"properties":[{"name":"enemy","type":"string","value":"bat"}]},{"id":6,"name":"Bat","type":"enemy","x":72,"y":216,"width":0,"height":0,"rotation":0,"visible":true,"point":true,"properties":[{"name":"enemy","type":"string","value":"bat"}]},{"id":7,"name":"Archer","type":"enemy","x":200,"y":216,"width":0,"height":0,"rotation":0,"visible":true,"point":true,"properties":[{"name":"enemy","type":"string","value":"archer"}]},{"id":8,"name":"Slime","type":"enemy","x":152,"y":104,"width":0,"height":0,"rotation":0,"visible":true,"point":true,"properties":[{"name":"enemy","type":"string","value":"slime"}]},{"id":9,"name":"Chest","type":"chest","x":48,"y":224,"width":0,"height":0,"rotation":0,"visible":true,"point":true,"properties":[{"name":"item","type":"string","value":"potion"},{"name":"count","type":"int","value":2}]},{"id":10,"name":"Chest","type":"chest","x":224,"y":56,"width":0,"height":0,"rotation":0,"visible":true,"point":true,"properties":[{"name":"gold","type":"int","value":40}]},{"id":11,"name":"Sign","type":"sign","x":160,"y":48,"width":0,"height":0,"rotation":0,"visible":true,"point":true,"properties":[{"name":"text","type":"string","value":"A chill runs down your spine. Something big waits beyond."}]}]}],"nextlayerid":5,"nextobjectid":12}