{"type":"map","version":"1.10","tiledversion":"1.10.2","orientation":"orthogonal","renderorder":"right-down","width":15,"height":11,"tilewidth":16,"tileheight":16,"infinite":false,"compressionlevel":-1,"tilesets":[{"firstgid":1,"source":"../assets/tilesets/placeholder.tsj"}],"layers":[{"id":1,"name":"ground","type":"tilelayer","visible":true,"opacity":1,"x":0,"y":0,"width":15,"height":11,"data":[3,33,33,33,33,33,33,33,3,33,33,33,33,33,3,33,33,33,33,33,33,33,33,33,33,33,33,3,33,33,33,33,33,33,33,33,33,3,33,33,33,33,33,33,33,33,33,33,33,33,33,33,33,33,33,33,33,33,33,33,33,33,33,33,33,33,33,33,33,33,33,33,33,33,33,33,33,3,33,33,33,33,33,33,33,33,33,33,33,33,33,3,33,39,39,33,33,33,33,33,33,33,33,33,33,33,33,33,39,39,33,33,33,3,33,33,33,33,33,33,33,33,33,33,33,33,33,33,33,33,33,3,33,33,33,33,33,33,33,33,33,33,33,33,33,33,33,33,33,33,33,33,33,33,33,33,33,33,33,33,33,33,33,33,33]},{"id":2,"name":"walls","type":"tilelayer","visible":true,"opacity":1,"x":0,"y":0,"width":15,"height":11,"data":[37,37,37,37,37,37,37,37,37,37,37,37,37,37,37,37,36,36,36,36,36,36,36,36,36,36,36,36,36,37,37,0,40,0,0,0,0,0,0,0,0,0,0,0,37,37,0,0,0,0,0,0,0,0,0,0,0,0,40,37,37,0,0,0,0,0,0,0,0,0,0,0,0,0,0,37,0,0,0,0,0,0,0,0,0,0,0,0,0,0,37,0,0,0,0,0,0,0,0,0,0,0,0,40,37,37,0,0,0,0,0,0,0,0,0,0,0,0,0,37,37,0,0,0,0,0,0,0,0,0,0,0,0,0,37,37,0,0,0,0,0,0,0,0,0,0,0,0,0,37,37,37,37,37,37,37,0,0,37,37,37,37,37,37,37]},{"id":3,"name":"above","type":"tilelayer","visible":true,"opacity":1,"x":0,"y":0,"width":15,"height":11,"data":[0,0,0,0,0,0,0,0,0,0,0,0,0,0,0,0,0,0,0,0,0,0,0,0,0,0,0,0,0,0,0,0,0,0,0,0,0,0,0,0,0,0,0,0,0,0,0,0,0,0,0,0,0,0,0,0,0,0,0,0,0,0,0,0,0,0,0,0,0,0,0,0,0,0,0,0,0,0,0,0,0,0,0,0,0,0,0,0,0,0,0,0,0,0,0,0,0,0,0,0,0,0,0,0,0,0,0,0,0,0,0,0,0,0,0,0,0,0,0,0,0,0,0,0,0,0,0,0,0,0,0,0,0,0,0,0,0,0,0,0,0,0,0,0,0,0,0,0,0,0,0,0,0,0,0,0,0,0,0,0,0,0,0,0,0]},{"id":4,"name":"objects","type":"objectgroup","visible":true,"opacity":1,"x":0,"y":0,"draworder":"topdown","objects":[{"id":1,"name":"to_dungeon4_14","type":"warp","x":224,"y":64,"width":16,"height":32,"rotation":0,"visible":true,"properties":[{"name":"map","type":"string","value":"dungeon4_14"},{"name":"spawn","type":"string","value":"west"}]},{"id":2,"name":"east","type":"spawn","x":184,"y":80,"width":0,"height":0,"rotation":0,"visible":true,"point":true,"properties":[{"name":"facing","type":"string","value":"left"}]},{"id":3,"name":"to_dungeon4_8","type":"warp","x":96,"y":160,"width":32,"height":16,"rotation":0,"visible":true,"properties":[{"name":"map","type":"string","value":"dungeon4_8"},{"name":"spawn","type":"string","value":"north"}]},{"id":4,"name":"south","type":"spawn","x":112,"y":120,"width":0,"height":0,"rotation":0,"visible":true,"point":true,"properties":[{"name":"facing","type":"string","value":"up"}]},{"id":5,"name":"Chest","type":"chest","x":120,"y":88,"width":0,"height":0,"rotation":0,"visible":true,"point":true,"properties":[{"name":"armor","type":"string","value":"sun_plate"},{"name":"ifFlag","type":"string","value":"ambush:dungeon4_15"}]},{"id":6,"name":"Ambush","type":"gate","x":208,"y":64,"width":16,"height":32,"rotation":0,"visible":true,"properties":[{"name":"mode","type":"string","value":"clear"}]},{"id":7,"name":"Ambush","type":"gate","x":96,"y":144,"width":32,"height":16,"rotation":0,"visible":true,"properties":[{"name":"mode","type":"string","value":"clear"}]},{"id":8,"name":"Enemy","type":"enemy","x":56,"y":72,"width":0,"height":0,"rotation":0,"visible":true,"point":true,"properties":[{"name":"enemy","type":"string","value":"fire_imp"}]},{"id":9,"name":"Enemy","type":"enemy","x":40,"y":88,"width":0,"height":0,"rotation":0,"visible":true,"point":true,"properties":[{"name":"enemy","type":"string","value":"fire_imp"}]},{"id":10,"name":"Enemy","type":"enemy","x":72,"y":56,"width":0,"height":0,"rotation":0,"visible":true,"point":true,"properties":[{"name":"enemy","type":"string","value":"fire_imp"}]},{"id":11,"name":"Enemy","type":"enemy","x":40,"y":56,"width":0,"height":0,"rotation":0,"visible":true,"point":true,"properties":[{"name":"enemy","type":"string","value":"scorpion"}]},{"id":12,"name":"Pot","type":"pot","x":216,"y":152,"width":0,"height":0,"rotation":0,"visible":true,"point":true,"properties":[{"name":"drop","type":"string","value":"gold"},{"name":"amount","type":"int","value":5}]},{"id":13,"name":"Pot","type":"pot","x":24,"y":152,"width":0,"height":0,"rotation":0,"visible":true,"point":true,"properties":[{"name":"drop","type":"string","value":"gold"},{"name":"amount","type":"int","value":5}]},{"id":14,"name":"Torch","type":"torch","x":200,"y":40,"width":0,"height":0,"rotation":0,"visible":true,"point":true,"properties":[{"name":"lit","type":"bool","value":true},{"name":"radius","type":"int","value":56}]},{"id":15,"name":"Torch","type":"torch","x":200,"y":152,"width":0,"height":0,"rotation":0,"visible":true,"point":true,"properties":[{"name":"lit","type":"bool","value":true},{"name":"radius","type":"int","value":56}]}]}],"nextlayerid":5,"nextobjectid":16}