{"type":"map","version":"1.10","tiledversion":"1.10.2","orientation":"orthogonal","renderorder":"right-down","width":18,"height":14,"tilewidth":16,"tileheight":16,"infinite":false,"compressionlevel":-1,"tilesets":[{"firstgid":1,"source":"../assets/tilesets/placeholder.tsj"}],"layers":[{"id":1,"name":"ground","type":"tilelayer","visible":true,"opacity":1,"x":0,"y":0,"width":18,"height":14,"data":[46,46,46,46,46,46,46,46,46,46,46,46,46,46,46,46,46,46,46,46,46,46,46,46,46,46,46,46,46,46,45,46,46,45,46,46,46,46,46,46,46,38,38,38,38,46,46,46,46,46,46,46,46,46,46,46,46,46,46,38,38,38,38,46,46,46,46,46,46,46,46,46,46,46,46,46,46,38,38,38,38,46,46,46,46,46,46,46,46,46,45,46,46,46,46,38,38,38,38,46,45,45,46,46,46,46,46,46,46,46,46,46,46,38,38,38,38,46,46,46,46,46,46,46,46,46,46,45,46,45,46,38,38,38,38,46,46,46,46,46,46,46,46,46,46,46,45,46,46,38,38,38,38,46,46,46,46,46,46,46,46,46,46,46,46,46,46,38,38,38,38,38,38,38,38,38,38,38,38,46,46,46,46,46,46,38,38,38,38,46,46,46,45,46,45,46,46,46,46,46,46,46,45,38,38,38,38,46,46,46,46,46,46,46,46,46,46,46,46,46,46,38,38,38,38,46,46,46,46,46,46,46,46,46,46,46,46,46,46,46,46,46,46,46,46,46,46,46,46,46,46,46]},{"id":2,"name":"walls","type":"tilelayer","visible":true,"opacity":1,"x":0,"y":0,"width":18,"height":14,"data":[48,48,48,48,48,48,48,48,48,48,48,48,48,48,48,48,48,48,48,47,47,47,47,47,47,47,47,47,47,47,47,47,47,47,47,48,48,0,0,0,0,0,0,0,0,0,0,0,0,0,0,0,0,48,48,0,0,0,0,0,0,0,0,0,0,0,0,0,0,0,0,48,48,0,0,0,0,0,0,0,0,0,0,0,0,0,0,0,0,48,48,0,0,0,0,0,0,0,0,0,0,0,0,0,0,0,0,48,0,0,0,0,0,0,0,0,0,0,0,0,0,0,0,0,0,48,0,0,0,0,0,0,0,0,0,0,0,0,0,0,0,0,0,48,48,0,0,0,0,0,0,0,0,0,0,0,0,0,0,0,0,48,48,0,0,0,0,0,0,0,0,0,0,0,0,0,0,0,0,48,48,0,0,0,0,0,0,0,0,0,0,0,0,0,0,0,0,48,48,0,0,0,0,0,0,0,0,0,0,0,0,0,0,0,0,48,48,0,0,0,0,0,0,0,0,0,0,0,0,0,0,0,0,48,48,48,48,48,48,48,48,48,48,48,48,48,48,48,48,48,48,48]},{"id":3,"name":"above","type":"tilelayer","visible":true,"opacity":1,"x":0,"y":0,"width":18,"height":14,"data":[0,0,0,0,0,0,0,0,0,0,0,0,0,0,0,0,0,0,0,0,0,0,0,0,0,0,0,0,0,0,0,0,0,0,0,0,0,0,0,0,0,0,0,0,0,0,0,0,0,0,0,0,0,0,0,0,0,0,0,0,0,0,0,0,0,0,0,0,0,0,0,0,0,0,0,0,0,0,0,0,0,0,0,0,0,0,0,0,0,0,0,0,0,0,0,0,0,0,0,0,0,0,0,0,0,0,0,0,0,0,0,0,0,0,0,0,0,0,0,0,0,0,0,0,0,0,0,0,0,0,0,0,0,0,0,0,0,0,0,0,0,0,0,0,0,0,0,0,0,0,0,0,0,0,0,0,0,0,0,0,0,0,0,0,0,0,0,0,0,0,0,0,0,0,0,0,0,0,0,0,0,0,0,0,0,0,0,0,0,0,0,0,0,0,0,0,0,0,0,0,0,0,0,0,0,0,0,0,0,0,0,0,0,0,0,0,0,0,0,0,0,0,0,0,0,0,0,0,0,0,0,0,0,0,0,0,0,0,0,0,0,0,0,0,0,0,0,0,0,0,0,0]},{"id":4,"name":"objects","type":"objectgroup","visible":true,"opacity":1,"x":0,"y":0,"draworder":"topdown","objects":[{"id":1,"name":"to_hall","type":"warp","x":0,"y":96,"width":16,"height":32,"rotation":0,"visible":true,"properties":[{"name":"map","type":"string","value":"dungeon3_2"},{"name":"spawn","type":"string","value":"east"}]},{"id":2,"name":"west","type":"spawn","x":40,"y":112,"width":0,"height":0,"rotation":0,"visible":true,"point":true,"properties":[{"name":"facing","type":"string","value":"right"}]},{"id":3,"name":"Post","type":"hook","x":168,"y":104,"width":0,"height":0,"rotation":0,"visible":true,"point":true,"properties":[]},{"id":4,"name":"Post","type":"hook","x":216,"y":184,"width":0,"height":0,"rotation":0,"visible":true,"point":true,"properties":[]},{"id":5,"name":"Post","type":"hook","x":248,"y":120,"width":0,"height":0,"rotation":0,"visible":true,"point":true,"properties":[]},{"id":6,"name":"Post","type":"hook","x":56,"y":72,"width":0,"height":0,"rotation":0,"visible":true,"point":true,"properties":[]},{"id":7,"name":"BigKey","type":"chest","x":232,"y":72,"width":0,"height":0,"rotation":0,"visible":true,"point":true,"properties":[{"name":"item","type":"string","value":"boss_key"}]},{"id":8,"name":"Herb","type":"item","x":248,"y":200,"width":0,"height":0,"rotation":0,"visible":true,"point":true,"properties":[{"name":"item","type":"string","value":"frost_herb"}]},{"id":9,"name":"Wisp","type":"enemy","x":216,"y":104,"width":0,"height":0,"rotation":0,"visible":true,"point":true,"properties":[{"name":"enemy","type":"string","value":"frost_wisp"}]},{"id":10,"name":"Wisp","type":"enemy","x":56,"y":184,"width":0,"height":0,"rotation":0,"visible":true,"point":true,"properties":[{"name":"enemy","type":"string","value":"frost_wisp"}]},{"id":11,"name":"Pot","type":"pot","x":24,"y":40,"width":0,"height":0,"rotation":0,"visible":true,"point":true,"properties":[]},{"id":12,"name":"Pot","type":"pot","x":24,"y":200,"width":0,"height":0,"rotation":0,"visible":true,"point":true,"properties":[{"name":"drop","type":"string","value":"mana"}]},{"id":13,"name":"Sign","type":"sign","x":56,"y":48,"width":0,"height":0,"rotation":0,"visible":true,"point":true,"properties":[{"name":"text","type":"string","value":"Only those who fly may cross."}]}]}],"nextlayerid":5,"nextobjectid":14}