{"type":"map","version":"1.10","tiledversion":"1.10.2","orientation":"orthogonal","renderorder":"right-down","width":16,"height":12,"tilewidth":16,"tileheight":16,"infinite":false,"compressionlevel":-1,"tilesets":[{"firstgid":1,"source":"../assets/tilesets/placeholder.tsj"}],"layers":[{"id":1,"name":"ground","type":"tilelayer","visible":true,"opacity":1,"x":0,"y":0,"width":16,"height":12,"data":[33,33,33,33,33,3,33,33,33,33,33,33,3,33,3,33,33,33,33,33,3,33,33,33,33,33,33,33,33,33,33,33,33,33,33,33,33,33,33,33,33,33,33,33,33,33,33,33,33,33,33,33,33,33,33,33,33,33,3,33,33,33,33,33,33,33,33,33,33,3,33,33,33,3,33,33,3,33,33,33,33,33,33,33,33,33,33,33,33,33,33,33,33,33,33,33,33,33,33,33,33,33,3,33,33,33,33,33,33,33,33,33,3,33,33,33,33,33,33,33,33,33,33,33,33,33,33,33,33,33,33,33,33,33,33,33,33,33,33,33,33,33,3,33,33,33,33,33,33,33,33,33,3,33,33,33,33,33,33,33,33,33,33,3,33,33,33,33,3,33,33,33,33,33,33,33,33,33,33,33,33,33,3,33,33,33,33,33,33,33,33,33]},{"id":2,"name":"walls","type":"tilelayer","visible":true,"opacity":1,"x":0,"y":0,"width":16,"height":12,"data":[37,37,37,37,37,37,37,0,0,37,37,37,37,37,37,37,37,36,36,36,36,36,36,0,0,36,36,36,36,36,36,37,37,0,0,0,0,0,0,0,0,0,0,0,0,0,0,37,37,0,0,0,0,0,0,0,0,0,0,0,0,0,0,37,37,0,0,19,0,0,0,0,0,0,0,0,0,0,0,37,37,0,0,0,19,0,0,0,0,0,0,0,0,0,0,0,37,0,0,0,0,0,0,0,0,0,0,0,0,0,0,0,37,0,0,0,19,0,0,0,0,0,0,0,0,0,0,37,37,0,0,19,0,0,0,0,0,0,0,0,0,0,0,37,37,0,0,0,0,0,0,0,0,0,0,0,0,0,0,37,37,0,0,0,0,0,0,0,0,0,0,0,0,0,0,37,37,37,37,37,37,37,37,0,0,37,37,37,37,37,37,37]},{"id":3,"name":"above","type":"tilelayer","visible":true,"opacity":1,"x":0,"y":0,"width":16,"height":12,"data":[0,0,0,0,0,0,0,0,0,0,0,0,0,0,0,0,0,0,0,0,0,0,0,0,0,0,0,0,0,0,0,0,0,0,0,0,0,0,0,0,0,0,0,0,0,0,0,0,0,0,0,0,0,0,0,0,0,0,0,0,0,0,0,0,0,0,0,0,0,0,0,0,0,0,0,0,0,0,0,0,0,0,0,0,0,0,0,0,0,0,0,0,0,0,0,0,0,0,0,0,0,0,0,0,0,0,0,0,0,0,0,0,0,0,0,0,0,0,0,0,0,0,0,0,0,0,0,0,0,0,0,0,0,0,0,0,0,0,0,0,0,0,0,0,0,0,0,0,0,0,0,0,0,0,0,0,0,0,0,0,0,0,0,0,0,0,0,0,0,0,0,0,0,0,0,0,0,0,0,0,0,0,0,0,0,0,0,0,0,0,0,0]},{"id":4,"name":"objects","type":"objectgroup","visible":true,"opacity":1,"x":0,"y":0,"draworder":"topdown","objects":[{"id":1,"name":"to_dungeon4_3","type":"warp","x":112,"y":176,"width":32,"height":16,"rotation":0,"visible":true,"properties":[{"name":"map","type":"string","value":"dungeon4_3"},{"name":"spawn","type":"string","value":"north"}]},{"id":2,"name":"south","type":"spawn","x":128,"y":136,"width":0,"height":0,"rotation":0,"visible":true,"point":true,"properties":[{"name":"facing","type":"string","value":"up"}]},{"id":3,"name":"to_dungeon4_5","type":"warp","x":112,"y":0,"width":32,"height":16,"rotation":0,"visible":true,"properties":[{"name":"map","type":"string","value":"dungeon4_5"},{"name":"spawn","type":"string","value":"south"}]},{"id":4,"name":"north","type":"spawn","x":128,"y":56,"width":0,"height":0,"rotation":0,"visible":true,"point":true,"properties":[{"name":"facing","type":"string","value":"down"}]},{"id":5,"name":"FlameGate","type":"gate","x":112,"y":16,"width":32,"height":16,"rotation":0,"visible":true,"properties":[{"name":"flag","type":"string","value":"brazier:dungeon4_4:N:0,brazier:dungeon4_4:N:1"},{"name":"text","type":"string","value":"Two cold braziers guard the gate. Only a holy flame can kindle them."}]},{"id":6,"name":"Brazier","type":"torch","x":88,"y":40,"width":0,"height":0,"rotation":0,"visible":true,"point":true,"properties":[{"name":"flag","type":"string","value":"brazier:dungeon4_4:N:0"},{"name":"hitBy","type":"string","value":"flame_brand"},{"name":"radius","type":"int","value":44}]},{"id":7,"name":"Brazier","type":"torch","x":168,"y":40,"width":0,"height":0,"rotation":0,"visible":true,"point":true,"properties":[{"name":"flag","type":"string","value":"brazier:dungeon4_4:N:1"},{"name":"hitBy","type":"string","value":"flame_brand"},{"name":"radius","type":"int","value":44}]},{"id":8,"name":"to_dungeon4_11","type":"warp","x":240,"y":80,"width":16,"height":32,"rotation":0,"visible":true,"properties":[{"name":"map","type":"string","value":"dungeon4_11"},{"name":"spawn","type":"string","value":"west"}]},{"id":9,"name":"east","type":"spawn","x":200,"y":96,"width":0,"height":0,"rotation":0,"visible":true,"point":true,"properties":[{"name":"facing","type":"string","value":"left"}]},{"id":10,"name":"Enemy","type":"enemy","x":40,"y":56,"width":0,"height":0,"rotation":0,"visible":true,"point":true,"properties":[{"name":"enemy","type":"string","value":"fire_imp"}]},{"id":11,"name":"Enemy","type":"enemy","x":216,"y":152,"width":0,"height":0,"rotation":0,"visible":true,"point":true,"properties":[{"name":"enemy","type":"string","value":"sand_knight"}]},{"id":12,"name":"Enemy","type":"enemy","x":40,"y":136,"width":0,"height":0,"rotation":0,"visible":true,"point":true,"properties":[{"name":"enemy","type":"string","value":"fire_imp"}]},{"id":13,"name":"Pot","type":"pot","x":216,"y":40,"width":0,"height":0,"rotation":0,"visible":true,"point":true,"properties":[]},{"id":14,"name":"Pot","type":"pot","x":40,"y":40,"width":0,"height":0,"rotation":0,"visible":true,"point":true,"properties":[]}]}],"nextlayerid":5,"nextobjectid":15}