{"type":"map","version":"1.10","tiledversion":"1.10.2","orientation":"orthogonal","renderorder":"right-down","width":15,"height":11,"tilewidth":16,"tileheight":16,"infinite":false,"compressionlevel":-1,"tilesets":[{"firstgid":1,"source":"../assets/tilesets/placeholder.tsj"}],"layers":[{"id":1,"name":"ground","type":"tilelayer","visible":true,"opacity":1,"x":0,"y":0,"width":15,"height":11,"data":[46,46,46,46,46,46,46,46,46,46,46,46,46,46,46,46,46,46,46,46,46,46,46,46,45,46,46,46,46,46,46,46,46,46,46,46,46,46,46,46,46,46,46,45,45,46,46,46,46,46,45,45,45,45,45,45,46,46,46,46,45,46,46,46,46,45,45,45,45,45,45,46,46,46,45,46,46,46,46,46,45,45,45,45,45,45,46,46,45,46,45,46,46,46,46,45,45,45,45,45,45,46,46,46,46,45,46,46,46,46,45,45,45,45,45,45,46,46,46,46,46,46,46,46,46,46,46,46,46,45,46,46,46,46,46,46,46,46,46,46,45,46,46,46,46,45,46,46,46,46,46,46,46,46,46,46,46,46,46,46,46,46,46,46,46]},{"id":2,"name":"walls","type":"tilelayer","visible":true,"opacity":1,"x":0,"y":0,"width":15,"height":11,"data":[48,48,48,48,48,48,0,0,48,48,48,48,48,48,48,48,47,47,47,47,47,0,0,47,47,47,47,47,47,48,48,0,0,0,0,0,0,0,0,0,0,0,0,0,48,48,0,0,0,0,0,0,0,0,0,0,0,0,0,48,0,0,0,0,0,0,0,0,0,0,0,0,0,0,0,0,0,0,0,0,0,0,0,0,0,0,0,0,0,0,48,0,0,0,0,0,0,0,0,0,0,0,0,0,48,48,0,0,0,0,0,0,0,0,0,0,0,0,0,48,48,0,0,0,0,0,0,0,0,0,0,0,0,0,48,48,0,0,0,0,0,0,0,0,0,0,0,0,0,48,48,48,48,48,48,48,48,48,48,48,48,48,48,48,48]},{"id":3,"name":"above","type":"tilelayer","visible":true,"opacity":1,"x":0,"y":0,"width":15,"height":11,"data":[0,0,0,0,0,0,0,0,0,0,0,0,0,0,0,0,0,0,0,0,0,0,0,0,0,0,0,0,0,0,0,0,0,0,0,0,0,0,0,0,0,0,0,0,0,0,0,0,0,0,0,0,0,0,0,0,0,0,0,0,0,0,0,0,0,0,0,0,0,0,0,0,0,0,0,0,0,0,0,0,0,0,0,0,0,0,0,0,0,0,0,0,0,0,0,0,0,0,0,0,0,0,0,0,0,0,0,0,0,0,0,0,0,0,0,0,0,0,0,0,0,0,0,0,0,0,0,0,0,0,0,0,0,0,0,0,0,0,0,0,0,0,0,0,0,0,0,0,0,0,0,0,0,0,0,0,0,0,0,0,0,0,0,0,0]},{"id":4,"name":"objects","type":"objectgroup","visible":true,"opacity":1,"x":0,"y":0,"draworder":"topdown","objects":[{"id":1,"name":"to_dungeon3_7","type":"warp","x":224,"y":64,"width":16,"height":32,"rotation":0,"visible":true,"properties":[{"name":"map","type":"string","value":"dungeon3_7"},{"name":"spawn","type":"string","value":"west"}]},{"id":2,"name":"east","type":"spawn","x":184,"y":80,"width":0,"height":0,"rotation":0,"visible":true,"point":true,"properties":[{"name":"facing","type":"string","value":"left"}]},{"id":3,"name":"to_dungeon3_19","type":"warp","x":0,"y":64,"width":16,"height":32,"rotation":0,"visible":true,"properties":[{"name":"map","type":"string","value":"dungeon3_19"},{"name":"spawn","type":"string","value":"east"}]},{"id":4,"name":"west","type":"spawn","x":56,"y":80,"width":0,"height":0,"rotation":0,"visible":true,"point":true,"properties":[{"name":"facing","type":"string","value":"right"}]},{"id":5,"name":"to_dungeon3_22","type":"warp","x":96,"y":0,"width":32,"height":16,"rotation":0,"visible":true,"properties":[{"name":"map","type":"string","value":"dungeon3_22"},{"name":"spawn","type":"string","value":"south"}]},{"id":6,"name":"north","type":"spawn","x":112,"y":56,"width":0,"height":0,"rotation":0,"visible":true,"point":true,"properties":[{"name":"facing","type":"string","value":"down"}]},{"id":7,"name":"EyeGate","type":"gate","x":96,"y":16,"width":32,"height":16,"rotation":0,"visible":true,"properties":[{"name":"flag","type":"string","value":"eye:dungeon3_15:N"},{"name":"text","type":"string","value":"The gate is shut. A stone eye stares from nearby... Only an arrow could reach it."}]},{"id":8,"name":"Eye","type":"switch","x":152,"y":40,"width":0,"height":0,"rotation":0,"visible":true,"point":true,"properties":[{"name":"mode","type":"string","value":"crystal"},{"name":"hitBy","type":"string","value":"bow"},{"name":"flag","type":"string","value":"eye:dungeon3_15:N"}]},{"id":9,"name":"Chest","type":"chest","x":120,"y":88,"width":0,"height":0,"rotation":0,"visible":true,"point":true,"properties":[{"name":"item","type":"string","value":"boss_key"}]},{"id":10,"name":"Enemy","type":"enemy","x":120,"y":136,"width":0,"height":0,"rotation":0,"visible":true,"point":true,"properties":[{"name":"enemy","type":"string","value":"frost_wisp"}]},{"id":11,"name":"Enemy","type":"enemy","x":88,"y":120,"width":0,"height":0,"rotation":0,"visible":true,"point":true,"properties":[{"name":"enemy","type":"string","value":"frost_wisp"}]},{"id":12,"name":"Pot","type":"pot","x":40,"y":40,"width":0,"height":0,"rotation":0,"visible":true,"point":true,"properties":[{"name":"drop","type":"string","value":"gold"},{"name":"amount","type":"int","value":5}]},{"id":13,"name":"Pot","type":"pot","x":200,"y":40,"width":0,"height":0,"rotation":0,"visible":true,"point":true,"properties":[]}]}],"nextlayerid":5,"nextobjectid":14}