{"type":"map","version":"1.10","tiledversion":"1.10.2","orientation":"orthogonal","renderorder":"right-down","width":19,"height":12,"tilewidth":16,"tileheight":16,"infinite":false,"compressionlevel":-1,"tilesets":[{"firstgid":1,"source":"../assets/tilesets/placeholder.tsj"}],"layers":[{"id":1,"name":"ground","type":"tilelayer","visible":true,"opacity":1,"x":0,"y":0,"width":19,"height":12,"data":[33,33,33,3,33,33,33,3,33,33,33,33,33,33,33,33,33,33,33,33,33,33,33,33,33,33,33,33,33,33,33,33,33,33,3,33,3,33,33,33,33,33,33,33,33,33,33,33,33,33,33,33,33,33,33,33,33,33,33,33,33,33,33,33,33,33,3,3,33,33,33,33,33,33,33,33,33,33,33,33,33,33,33,33,33,33,33,33,33,33,33,33,3,33,33,33,33,3,33,33,33,33,33,33,33,33,33,33,33,33,33,3,33,33,33,3,33,33,3,33,33,33,33,33,33,33,3,33,3,33,33,3,33,33,33,33,33,33,33,33,3,33,33,33,33,33,33,33,33,33,33,33,33,33,33,33,33,33,33,3,33,33,33,3,3,33,33,33,33,33,33,33,33,33,33,33,33,33,33,33,33,33,33,33,3,33,33,33,33,33,33,33,3,33,33,33,33,33,33,33,33,33,33,33,33,33,33,33,33,33,33,33,3,33,33,33,33,33,33,33,33,33,33,33,33,33,33,33]},{"id":2,"name":"walls","type":"tilelayer","visible":true,"opacity":1,"x":0,"y":0,"width":19,"height":12,"data":[37,37,37,37,37,37,37,37,0,0,37,37,37,37,37,37,37,37,37,37,36,36,36,36,36,36,36,0,0,36,36,36,36,36,36,36,36,37,37,0,0,0,0,0,0,0,0,0,0,0,0,0,0,0,0,0,37,37,0,0,0,0,0,0,0,0,0,0,0,0,0,0,0,0,0,37,37,0,0,0,0,0,0,0,0,0,0,0,0,0,0,0,0,0,37,0,0,0,0,0,0,0,0,0,0,0,0,0,0,0,0,0,0,0,0,0,0,0,0,0,0,0,0,0,0,0,0,0,0,0,0,0,0,37,0,0,0,0,0,0,0,0,0,0,0,0,0,0,0,0,0,37,37,0,0,19,0,0,0,0,0,0,0,0,0,0,0,19,0,0,37,37,0,0,0,0,0,0,0,0,0,0,0,0,0,0,0,0,0,37,37,0,0,0,0,0,0,0,0,0,0,0,0,0,0,0,0,0,37,37,37,37,37,37,37,37,37,0,0,37,37,37,37,37,37,37,37,37]},{"id":3,"name":"above","type":"tilelayer","visible":true,"opacity":1,"x":0,"y":0,"width":19,"height":12,"data":[0,0,0,0,0,0,0,0,0,0,0,0,0,0,0,0,0,0,0,0,0,0,0,0,0,0,0,0,0,0,0,0,0,0,0,0,0,0,0,0,0,0,0,0,0,0,0,0,0,0,0,0,0,0,0,0,0,0,0,0,0,0,0,0,0,0,0,0,0,0,0,0,0,0,0,0,0,0,0,0,0,0,0,0,0,0,0,0,0,0,0,0,0,0,0,0,0,0,0,0,0,0,0,0,0,0,0,0,0,0,0,0,0,0,0,0,0,0,0,0,0,0,0,0,0,0,0,0,0,0,0,0,0,0,0,0,0,0,0,0,0,0,0,0,0,0,0,0,0,0,0,0,0,0,0,0,0,0,0,0,0,0,0,0,0,0,0,0,0,0,0,0,0,0,0,0,0,0,0,0,0,0,0,0,0,0,0,0,0,0,0,0,0,0,0,0,0,0,0,0,0,0,0,0,0,0,0,0,0,0,0,0,0,0,0,0,0,0,0,0,0,0,0,0,0,0,0,0]},{"id":4,"name":"objects","type":"objectgroup","visible":true,"opacity":1,"x":0,"y":0,"draworder":"topdown","objects":[{"id":1,"name":"to_dungeon4_6","type":"warp","x":0,"y":80,"width":16,"height":32,"rotation":0,"visible":true,"properties":[{"name":"map","type":"string","value":"dungeon4_6"},{"name":"spawn","type":"string","value":"east"}]},{"id":2,"name":"west","type":"spawn","x":56,"y":96,"width":0,"height":0,"rotation":0,"visible":true,"point":true,"properties":[{"name":"facing","type":"string","value":"right"}]},{"id":3,"name":"to_dungeon4_boss","type":"warp","x":128,"y":0,"width":32,"height":16,"rotation":0,"visible":true,"properties":[{"name":"map","type":"string","value":"dungeon4_boss"},{"name":"spawn","type":"string","value":"south"}]},{"id":4,"name":"north","type":"spawn","x":144,"y":56,"width":0,"height":0,"rotation":0,"visible":true,"point":true,"properties":[{"name":"facing","type":"string","value":"down"}]},{"id":5,"name":"BossDoor","type":"door","x":128,"y":16,"width":32,"height":16,"rotation":0,"visible":true,"properties":[{"name":"lock","type":"string","value":"boss_key"}]},{"id":6,"name":"to_dungeon4_13","type":"warp","x":128,"y":176,"width":32,"height":16,"rotation":0,"visible":true,"properties":[{"name":"map","type":"string","value":"dungeon4_13"},{"name":"spawn","type":"string","value":"north"}]},{"id":7,"name":"south","type":"spawn","x":144,"y":136,"width":0,"height":0,"rotation":0,"visible":true,"point":true,"properties":[{"name":"facing","type":"string","value":"up"}]},{"id":8,"name":"to_dungeon4_18","type":"warp","x":288,"y":80,"width":16,"height":32,"rotation":0,"visible":true,"properties":[{"name":"map","type":"string","value":"dungeon4_18"},{"name":"spawn","type":"string","value":"west"}]},{"id":9,"name":"east","type":"spawn","x":248,"y":96,"width":0,"height":0,"rotation":0,"visible":true,"point":true,"properties":[{"name":"facing","type":"string","value":"left"}]},{"id":10,"name":"Enemy","type":"enemy","x":200,"y":152,"width":0,"height":0,"rotation":0,"visible":true,"point":true,"properties":[{"name":"enemy","type":"string","value":"sand_knight"}]},{"id":11,"name":"Enemy","type":"enemy","x":216,"y":136,"width":0,"height":0,"rotation":0,"visible":true,"point":true,"properties":[{"name":"enemy","type":"string","value":"wisp"}]},{"id":12,"name":"Torch","type":"torch","x":264,"y":168,"width":0,"height":0,"rotation":0,"visible":true,"point":true,"properties":[{"name":"lit","type":"bool","value":true},{"name":"radius","type":"int","value":56}]},{"id":13,"name":"Torch","type":"torch","x":40,"y":40,"width":0,"height":0,"rotation":0,"visible":true,"point":true,"properties":[{"name":"lit","type":"bool","value":true},{"name":"radius","type":"int","value":56}]},{"id":14,"name":"Torch","type":"torch","x":264,"y":40,"width":0,"height":0,"rotation":0,"visible":true,"point":true,"properties":[{"name":"lit","type":"bool","value":true},{"name":"radius","type":"int","value":56}]}]}],"nextlayerid":5,"nextobjectid":15}