{"type":"map","version":"1.10","tiledversion":"1.10.2","orientation":"orthogonal","renderorder":"right-down","width":17,"height":13,"tilewidth":16,"tileheight":16,"infinite":false,"compressionlevel":-1,"tilesets":[{"firstgid":1,"source":"../assets/tilesets/placeholder.tsj"}],"layers":[{"id":1,"name":"ground","type":"tilelayer","visible":true,"opacity":1,"x":0,"y":0,"width":17,"height":13,"data":[33,33,33,33,33,33,33,33,33,33,33,33,33,33,33,33,33,33,33,33,3,33,33,3,3,33,3,33,33,33,33,33,33,33,33,33,33,33,33,33,33,3,33,33,33,33,33,33,33,33,33,33,33,33,33,33,33,33,33,3,33,33,33,33,33,33,33,33,33,33,33,33,33,33,33,33,33,33,33,33,33,33,33,33,33,33,33,39,33,39,39,3,33,33,33,33,33,33,33,33,3,33,3,33,39,39,39,39,33,33,33,33,33,33,33,33,33,3,3,33,33,33,33,33,33,33,33,33,33,33,33,33,33,33,33,33,33,33,33,33,3,33,33,33,33,33,33,33,33,33,33,33,33,33,33,33,33,33,33,33,33,33,33,33,33,33,33,33,33,33,33,33,33,33,33,33,33,33,33,33,33,33,33,33,33,33,3,33,33,33,33,33,3,33,33,33,33,33,33,33,33,33,33,33,33,33,33,3,3,33,33,33,33,33,33,33,33,33,33,33,33]},{"id":2,"name":"walls","type":"tilelayer","visible":true,"opacity":1,"x":0,"y":0,"width":17,"height":13,"data":[37,37,37,37,37,37,37,37,37,37,37,37,37,37,37,37,37,37,36,36,36,36,36,36,36,36,36,36,36,36,36,36,36,37,37,0,0,0,0,0,0,0,0,0,0,0,0,0,0,0,37,37,0,0,0,0,0,0,0,0,0,0,0,0,0,0,0,37,37,0,0,0,0,0,0,0,0,0,0,0,0,0,0,0,37,37,0,0,19,0,0,0,0,0,0,0,0,0,19,0,0,37,37,0,0,0,0,0,0,0,0,0,0,0,0,0,0,0,37,37,0,0,0,0,0,0,0,0,0,0,0,0,0,0,0,37,37,0,0,19,0,0,0,0,0,0,0,0,0,19,0,0,37,37,0,0,0,0,0,0,0,0,0,0,0,0,0,0,0,37,37,0,0,0,0,0,0,0,0,0,0,0,0,0,0,0,37,37,0,0,0,0,0,0,0,0,0,0,0,0,0,0,0,37,37,37,37,37,37,37,37,0,0,37,37,37,37,37,37,37,37]},{"id":3,"name":"above","type":"tilelayer","visible":true,"opacity":1,"x":0,"y":0,"width":17,"height":13,"data":[0,0,0,0,0,0,0,0,0,0,0,0,0,0,0,0,0,0,0,0,0,0,0,0,0,0,0,0,0,0,0,0,0,0,0,0,0,0,0,0,0,0,0,0,0,0,0,0,0,0,0,0,0,0,0,0,0,0,0,0,0,0,0,0,0,0,0,0,0,0,0,0,0,0,0,0,0,0,0,0,0,0,0,0,0,0,0,0,0,0,0,0,0,0,0,0,0,0,0,0,0,0,0,0,0,0,0,0,0,0,0,0,0,0,0,0,0,0,0,0,0,0,0,0,0,0,0,0,0,0,0,0,0,0,0,0,0,0,0,0,0,0,0,0,0,0,0,0,0,0,0,0,0,0,0,0,0,0,0,0,0,0,0,0,0,0,0,0,0,0,0,0,0,0,0,0,0,0,0,0,0,0,0,0,0,0,0,0,0,0,0,0,0,0,0,0,0,0,0,0,0,0,0,0,0,0,0,0,0,0,0,0,0,0,0,0,0,0,0,0,0]},{"id":4,"name":"objects","type":"objectgroup","visible":true,"opacity":1,"x":0,"y":0,"draworder":"topdown","objects":[{"id":1,"name":"to_dungeon4_2","type":"warp","x":112,"y":192,"width":32,"height":16,"rotation":0,"visible":true,"properties":[{"name":"map","type":"string","value":"dungeon4_2"},{"name":"spawn","type":"string","value":"north"}]},{"id":2,"name":"south","type":"spawn","x":128,"y":152,"width":0,"height":0,"rotation":0,"visible":true,"point":true,"properties":[{"name":"facing","type":"string","value":"up"}]},{"id":3,"name":"Chest","type":"chest","x":136,"y":104,"width":0,"height":0,"rotation":0,"visible":true,"point":true,"properties":[{"name":"item","type":"string","value":"dungeon_map"},{"name":"flag","type":"string","value":"map:dungeon4"}]},{"id":4,"name":"Enemy","type":"enemy","x":40,"y":120,"width":0,"height":0,"rotation":0,"visible":true,"point":true,"properties":[{"name":"enemy","type":"string","value":"fire_imp"}]},{"id":5,"name":"Torch","type":"torch","x":232,"y":184,"width":0,"height":0,"rotation":0,"visible":true,"point":true,"properties":[{"name":"lit","type":"bool","value":true},{"name":"radius","type":"int","value":56}]},{"id":6,"name":"Torch","type":"torch","x":232,"y":40,"width":0,"height":0,"rotation":0,"visible":true,"point":true,"properties":[{"name":"lit","type":"bool","value":true},{"name":"radius","type":"int","value":56}]}]}],"nextlayerid":5,"nextobjectid":7}