{"type":"map","version":"1.10","tiledversion":"1.10.2","orientation":"orthogonal","renderorder":"right-down","width":18,"height":12,"tilewidth":16,"tileheight":16,"infinite":false,"compressionlevel":-1,"tilesets":[{"firstgid":1,"source":"../assets/tilesets/placeholder.tsj"}],"layers":[{"id":1,"name":"ground","type":"tilelayer","visible":true,"opacity":1,"x":0,"y":0,"width":18,"height":12,"data":[46,45,46,45,46,46,46,45,46,46,46,46,46,46,46,45,46,46,46,46,46,46,46,46,46,46,46,46,46,46,46,46,46,45,46,46,46,46,46,46,46,46,46,46,46,46,46,45,46,45,46,46,46,46,46,46,46,46,45,45,45,45,45,45,45,45,45,45,46,46,46,46,46,46,46,46,45,45,45,45,45,45,45,45,45,46,46,46,46,46,46,46,46,46,45,45,45,45,45,45,45,45,45,46,46,46,45,46,46,45,46,46,45,45,45,45,45,45,45,45,45,45,46,46,46,46,46,46,46,46,45,45,45,45,45,45,45,45,45,46,46,46,46,46,46,46,46,46,46,45,46,46,46,46,46,46,46,46,46,46,46,46,46,46,46,46,46,45,46,46,46,46,46,46,46,46,46,46,46,46,46,46,46,46,46,46,46,46,46,46,46,46,46,46,46,46,46,46,46,45,46,46,46,46,46,46,46,46,45,46,46,46,46,46,46,46]},{"id":2,"name":"walls","type":"tilelayer","visible":true,"opacity":1,"x":0,"y":0,"width":18,"height":12,"data":[48,48,48,48,48,48,48,48,48,48,48,48,48,48,48,48,48,48,48,47,47,47,47,47,47,47,47,47,47,47,47,47,47,47,47,48,48,0,0,0,0,0,0,0,0,0,0,0,0,0,0,0,0,48,48,0,0,0,0,0,0,0,0,0,0,0,0,0,0,0,0,48,48,0,0,0,0,0,0,0,0,0,0,0,0,0,0,0,0,48,48,0,0,0,0,0,0,0,0,0,0,0,0,0,0,0,0,48,48,0,0,0,0,0,0,0,0,0,0,0,0,0,0,0,0,48,48,0,0,0,0,0,0,0,0,0,0,0,0,0,0,0,0,48,48,0,0,0,0,0,0,0,0,0,0,0,0,0,0,0,0,48,48,0,0,0,0,0,0,0,0,0,0,0,0,0,0,0,0,48,48,0,0,0,0,0,0,0,0,0,0,0,0,0,0,0,0,48,48,48,48,48,48,48,48,48,0,0,48,48,48,48,48,48,48,48]},{"id":3,"name":"above","type":"tilelayer","visible":true,"opacity":1,"x":0,"y":0,"width":18,"height":12,"data":[0,0,0,0,0,0,0,0,0,0,0,0,0,0,0,0,0,0,0,0,0,0,0,0,0,0,0,0,0,0,0,0,0,0,0,0,0,0,0,0,0,0,0,0,0,0,0,0,0,0,0,0,0,0,0,0,0,0,0,0,0,0,0,0,0,0,0,0,0,0,0,0,0,0,0,0,0,0,0,0,0,0,0,0,0,0,0,0,0,0,0,0,0,0,0,0,0,0,0,0,0,0,0,0,0,0,0,0,0,0,0,0,0,0,0,0,0,0,0,0,0,0,0,0,0,0,0,0,0,0,0,0,0,0,0,0,0,0,0,0,0,0,0,0,0,0,0,0,0,0,0,0,0,0,0,0,0,0,0,0,0,0,0,0,0,0,0,0,0,0,0,0,0,0,0,0,0,0,0,0,0,0,0,0,0,0,0,0,0,0,0,0,0,0,0,0,0,0,0,0,0,0,0,0,0,0,0,0,0,0,0,0,0,0,0,0]},{"id":4,"name":"objects","type":"objectgroup","visible":true,"opacity":1,"x":0,"y":0,"draworder":"topdown","objects":[{"id":1,"name":"to_dungeon3_9","type":"warp","x":128,"y":176,"width":32,"height":16,"rotation":0,"visible":true,"properties":[{"name":"map","type":"string","value":"dungeon3_9"},{"name":"spawn","type":"string","value":"north"}]},{"id":2,"name":"south","type":"spawn","x":144,"y":136,"width":0,"height":0,"rotation":0,"visible":true,"point":true,"properties":[{"name":"facing","type":"string","value":"up"}]},{"id":3,"name":"Chest","type":"chest","x":152,"y":104,"width":0,"height":0,"rotation":0,"visible":true,"point":true,"properties":[{"name":"armor","type":"string","value":"mystic_robe"}]},{"id":4,"name":"Enemy","type":"enemy","x":168,"y":56,"width":0,"height":0,"rotation":0,"visible":true,"point":true,"properties":[{"name":"enemy","type":"string","value":"ice_slime"}]}]}],"nextlayerid":5,"nextobjectid":5}