{"type":"map","version":"1.10","tiledversion":"1.10.2","orientation":"orthogonal","renderorder":"right-down","width":15,"height":11,"tilewidth":16,"tileheight":16,"infinite":false,"compressionlevel":-1,"tilesets":[{"firstgid":1,"source":"../assets/tilesets/placeholder.tsj"}],"layers":[{"id":1,"name":"ground","type":"tilelayer","visible":true,"opacity":1,"x":0,"y":0,"width":15,"height":11,"data":[33,33,33,33,3,33,33,33,33,33,33,33,33,33,33,33,33,33,33,33,33,33,33,3,33,33,33,33,33,33,33,33,33,33,33,33,33,33,33,33,33,33,33,33,33,33,33,33,3,33,33,33,33,33,33,33,33,3,33,3,33,33,33,33,33,33,33,33,33,33,33,33,3,3,33,33,33,33,33,33,33,33,33,3,33,39,39,33,33,3,33,33,33,33,33,33,3,33,33,33,39,39,33,33,33,33,3,33,33,33,33,33,33,3,3,39,39,33,33,33,33,33,33,33,33,33,33,33,33,33,33,33,33,33,33,33,33,33,33,33,33,33,33,33,33,33,33,33,33,33,33,33,33,33,33,33,33,33,33,33,33,33,33,33,3]},{"id":2,"name":"walls","type":"tilelayer","visible":true,"opacity":1,"x":0,"y":0,"width":15,"height":11,"data":[37,37,37,37,37,37,0,0,37,37,37,37,37,37,37,37,36,36,36,36,36,0,0,36,36,36,36,36,36,37,37,0,0,0,0,0,0,0,0,0,0,0,0,0,37,37,0,0,0,0,0,0,0,0,0,0,0,0,0,37,0,0,0,0,0,0,0,0,0,0,0,0,0,0,37,0,0,0,0,0,0,0,0,0,0,0,0,0,0,37,37,0,0,0,0,0,0,0,0,0,0,0,0,0,37,37,0,0,0,0,0,0,0,0,0,0,0,0,0,37,37,0,0,0,0,0,0,0,0,0,0,0,0,0,37,37,0,0,0,0,0,0,0,0,0,0,0,0,0,37,37,37,37,37,37,37,0,0,37,37,37,37,37,37,37]},{"id":3,"name":"above","type":"tilelayer","visible":true,"opacity":1,"x":0,"y":0,"width":15,"height":11,"data":[0,0,0,0,0,0,0,0,0,0,0,0,0,0,0,0,0,0,0,0,0,0,0,0,0,0,0,0,0,0,0,0,0,0,0,0,0,0,0,0,0,0,0,0,0,0,0,0,0,0,0,0,0,0,0,0,0,0,0,0,0,0,0,0,0,0,0,0,0,0,0,0,0,0,0,0,0,0,0,0,0,0,0,0,0,0,0,0,0,0,0,0,0,0,0,0,0,0,0,0,0,0,0,0,0,0,0,0,0,0,0,0,0,0,0,0,0,0,0,0,0,0,0,0,0,0,0,0,0,0,0,0,0,0,0,0,0,0,0,0,0,0,0,0,0,0,0,0,0,0,0,0,0,0,0,0,0,0,0,0,0,0,0,0,0]},{"id":4,"name":"objects","type":"objectgroup","visible":true,"opacity":1,"x":0,"y":0,"draworder":"topdown","objects":[{"id":1,"name":"to_dungeon4_11","type":"warp","x":0,"y":64,"width":16,"height":32,"rotation":0,"visible":true,"properties":[{"name":"map","type":"string","value":"dungeon4_11"},{"name":"spawn","type":"string","value":"east"}]},{"id":2,"name":"west","type":"spawn","x":56,"y":80,"width":0,"height":0,"rotation":0,"visible":true,"point":true,"properties":[{"name":"facing","type":"string","value":"right"}]},{"id":3,"name":"to_dungeon4_22","type":"warp","x":96,"y":160,"width":32,"height":16,"rotation":0,"visible":true,"properties":[{"name":"map","type":"string","value":"dungeon4_22"},{"name":"spawn","type":"string","value":"north"}]},{"id":4,"name":"south","type":"spawn","x":112,"y":120,"width":0,"height":0,"rotation":0,"visible":true,"point":true,"properties":[{"name":"facing","type":"string","value":"up"}]},{"id":5,"name":"Crack","type":"crack","x":96,"y":144,"width":32,"height":16,"rotation":0,"visible":true,"properties":[{"name":"text","type":"string","value":"A crack runs through the wall. A bomb might do it."}]},{"id":6,"name":"to_dungeon4_23","type":"warp","x":96,"y":0,"width":32,"height":16,"rotation":0,"visible":true,"properties":[{"name":"map","type":"string","value":"dungeon4_23"},{"name":"spawn","type":"string","value":"south"}]},{"id":7,"name":"north","type":"spawn","x":112,"y":56,"width":0,"height":0,"rotation":0,"visible":true,"point":true,"properties":[{"name":"facing","type":"string","value":"down"}]},{"id":8,"name":"Chest","type":"chest","x":120,"y":88,"width":0,"height":0,"rotation":0,"visible":true,"point":true,"properties":[{"name":"maxHp","type":"int","value":4}]},{"id":9,"name":"Enemy","type":"enemy","x":200,"y":72,"width":0,"height":0,"rotation":0,"visible":true,"point":true,"properties":[{"name":"enemy","type":"string","value":"scorpion"}]},{"id":10,"name":"Pot","type":"pot","x":40,"y":40,"width":0,"height":0,"rotation":0,"visible":true,"point":true,"properties":[]},{"id":11,"name":"Pot","type":"pot","x":200,"y":40,"width":0,"height":0,"rotation":0,"visible":true,"point":true,"properties":[]},{"id":12,"name":"Torch","type":"torch","x":200,"y":152,"width":0,"height":0,"rotation":0,"visible":true,"point":true,"properties":[{"name":"lit","type":"bool","value":true},{"name":"radius","type":"int","value":56}]},{"id":13,"name":"Torch","type":"torch","x":40,"y":152,"width":0,"height":0,"rotation":0,"visible":true,"point":true,"properties":[{"name":"lit","type":"bool","value":true},{"name":"radius","type":"int","value":56}]}]}],"nextlayerid":5,"nextobjectid":14}