{"type":"map","version":"1.10","tiledversion":"1.10.2","orientation":"orthogonal","renderorder":"right-down","width":19,"height":11,"tilewidth":16,"tileheight":16,"infinite":false,"compressionlevel":-1,"tilesets":[{"firstgid":1,"source":"../assets/tilesets/placeholder.tsj"}],"layers":[{"id":1,"name":"ground","type":"tilelayer","visible":true,"opacity":1,"x":0,"y":0,"width":19,"height":11,"data":[46,46,46,46,46,46,46,46,46,46,46,46,46,46,46,46,46,46,46,46,46,46,46,45,46,46,46,46,46,46,45,46,46,45,46,46,45,46,46,46,46,46,46,45,46,46,46,46,46,46,46,46,46,46,46,46,46,46,46,46,46,46,46,46,46,46,46,46,46,46,46,46,46,46,46,46,46,45,46,46,46,46,46,50,50,46,46,46,45,46,46,46,46,46,46,45,46,46,46,46,46,46,50,50,46,46,46,46,46,45,46,46,46,46,46,46,46,46,46,46,46,46,46,46,46,46,45,46,46,46,46,46,46,46,45,46,46,46,46,46,46,46,46,46,46,45,46,46,46,46,46,46,46,45,46,45,46,46,46,46,45,46,46,46,46,46,46,46,46,46,46,46,46,46,46,46,46,45,46,46,46,46,46,46,46,45,46,46,46,46,46,46,46,46,46,46,46,46,46,46,46,46,46,46,46,45,46,45,46]},{"id":2,"name":"walls","type":"tilelayer","visible":true,"opacity":1,"x":0,"y":0,"width":19,"height":11,"data":[48,48,48,48,48,48,48,48,48,48,48,48,48,48,48,48,48,48,48,48,47,47,47,47,47,47,47,47,47,47,47,47,47,47,47,47,47,48,48,0,0,0,0,0,0,0,0,0,0,0,0,0,0,0,0,0,48,48,0,0,0,0,0,0,0,0,0,0,0,0,0,0,0,0,0,48,0,0,0,0,0,0,0,0,0,0,0,0,0,0,0,0,0,0,48,0,0,0,0,0,0,0,0,0,0,0,0,0,0,0,0,0,0,48,48,0,0,0,0,0,0,0,0,0,0,0,0,0,0,0,0,0,48,48,0,0,0,0,0,0,0,0,0,0,0,0,0,0,0,0,0,48,48,0,0,0,0,0,0,0,0,0,0,0,0,0,0,0,0,0,48,48,0,0,0,0,0,0,0,0,0,0,0,0,0,0,0,0,0,48,48,48,48,48,48,48,48,48,0,0,48,48,48,48,48,48,48,48,48]},{"id":3,"name":"above","type":"tilelayer","visible":true,"opacity":1,"x":0,"y":0,"width":19,"height":11,"data":[0,0,0,0,0,0,0,0,0,0,0,0,0,0,0,0,0,0,0,0,0,0,0,0,0,0,0,0,0,0,0,0,0,0,0,0,0,0,0,0,0,0,0,0,0,0,0,0,0,0,0,0,0,0,0,0,0,0,0,0,0,0,0,0,0,0,0,0,0,0,0,0,0,0,0,0,0,0,0,0,0,0,0,0,0,0,0,0,0,0,0,0,0,0,0,0,0,0,0,0,0,0,0,0,0,0,0,0,0,0,0,0,0,0,0,0,0,0,0,0,0,0,0,0,0,0,0,0,0,0,0,0,0,0,0,0,0,0,0,0,0,0,0,0,0,0,0,0,0,0,0,0,0,0,0,0,0,0,0,0,0,0,0,0,0,0,0,0,0,0,0,0,0,0,0,0,0,0,0,0,0,0,0,0,0,0,0,0,0,0,0,0,0,0,0,0,0,0,0,0,0,0,0,0,0,0,0,0,0]},{"id":4,"name":"objects","type":"objectgroup","visible":true,"opacity":1,"x":0,"y":0,"draworder":"topdown","objects":[{"id":1,"name":"to_dungeon3_20","type":"warp","x":128,"y":160,"width":32,"height":16,"rotation":0,"visible":true,"properties":[{"name":"map","type":"string","value":"dungeon3_20"},{"name":"spawn","type":"string","value":"north"}]},{"id":2,"name":"south","type":"spawn","x":144,"y":120,"width":0,"height":0,"rotation":0,"visible":true,"point":true,"properties":[{"name":"facing","type":"string","value":"up"}]},{"id":3,"name":"to_dungeon3_14","type":"warp","x":0,"y":64,"width":16,"height":32,"rotation":0,"visible":true,"properties":[{"name":"map","type":"string","value":"dungeon3_14"},{"name":"spawn","type":"string","value":"east"}]},{"id":4,"name":"west","type":"spawn","x":56,"y":80,"width":0,"height":0,"rotation":0,"visible":true,"point":true,"properties":[{"name":"facing","type":"string","value":"right"}]},{"id":5,"name":"Enemy","type":"enemy","x":264,"y":104,"width":0,"height":0,"rotation":0,"visible":true,"point":true,"properties":[{"name":"enemy","type":"string","value":"frost_wisp"}]},{"id":6,"name":"Enemy","type":"enemy","x":232,"y":88,"width":0,"height":0,"rotation":0,"visible":true,"point":true,"properties":[{"name":"enemy","type":"string","value":"yeti"}]},{"id":7,"name":"Enemy","type":"enemy","x":248,"y":120,"width":0,"height":0,"rotation":0,"visible":true,"point":true,"properties":[{"name":"enemy","type":"string","value":"yeti"}]}]}],"nextlayerid":5,"nextobjectid":8}