{"type":"map","version":"1.10","tiledversion":"1.10.2","orientation":"orthogonal","renderorder":"right-down","width":15,"height":12,"tilewidth":16,"tileheight":16,"infinite":false,"compressionlevel":-1,"tilesets":[{"firstgid":1,"source":"../assets/tilesets/placeholder.tsj"}],"layers":[{"id":1,"name":"ground","type":"tilelayer","visible":true,"opacity":1,"x":0,"y":0,"width":15,"height":12,"data":[35,35,35,35,35,35,35,35,35,35,35,35,35,35,35,35,35,35,35,35,35,35,35,35,35,35,35,35,35,35,35,35,35,35,35,35,35,35,35,35,35,35,35,35,35,35,35,35,35,35,35,35,35,35,35,35,35,35,35,35,35,35,35,35,35,35,35,35,35,35,35,35,35,35,35,35,35,35,35,35,35,35,35,35,35,35,35,35,35,35,35,35,35,35,35,35,35,35,35,35,35,35,35,35,35,35,35,35,35,35,35,35,35,35,35,35,35,35,35,35,35,35,35,35,35,35,35,35,35,35,35,35,35,35,35,35,35,35,35,35,35,35,35,35,35,35,35,35,35,35,35,35,35,35,35,35,35,35,35,35,35,35,35,35,35,35,35,35,35,35,35,35,35,35,35,35,35,35,35,35]},{"id":2,"name":"walls","type":"tilelayer","visible":true,"opacity":1,"x":0,"y":0,"width":15,"height":12,"data":[37,37,37,37,37,37,37,37,37,37,37,37,37,37,37,37,36,36,36,36,36,36,36,36,36,36,36,36,36,37,37,0,0,0,0,0,0,0,0,0,0,0,0,0,37,37,0,0,0,0,0,0,0,0,0,0,0,0,40,37,37,0,0,0,0,0,0,0,0,0,0,0,0,0,37,0,0,0,0,0,0,0,0,0,0,0,0,0,0,0,0,0,0,0,0,0,0,0,0,0,0,0,0,0,0,37,0,0,0,0,0,0,0,0,0,0,0,0,0,37,37,0,0,0,0,0,0,0,0,0,0,0,40,0,37,37,40,0,0,0,0,0,0,0,0,0,0,0,0,37,37,0,0,0,0,0,0,0,0,0,0,0,0,0,37,37,37,37,37,37,37,37,37,37,37,37,37,37,37,37]},{"id":3,"name":"above","type":"tilelayer","visible":true,"opacity":1,"x":0,"y":0,"width":15,"height":12,"data":[0,0,0,0,0,0,0,0,0,0,0,0,0,0,0,0,0,0,0,0,0,0,0,0,0,0,0,0,0,0,0,0,0,0,0,0,0,0,0,0,0,0,0,0,0,0,0,0,0,0,0,0,0,0,0,0,0,0,0,0,0,0,0,0,0,0,0,0,0,0,0,0,0,0,0,0,0,0,0,0,0,0,0,0,0,0,0,0,0,0,0,0,0,0,0,0,0,0,0,0,0,0,0,0,0,0,0,0,0,0,0,0,0,0,0,0,0,0,0,0,0,0,0,0,0,0,0,0,0,0,0,0,0,0,0,0,0,0,0,0,0,0,0,0,0,0,0,0,0,0,0,0,0,0,0,0,0,0,0,0,0,0,0,0,0,0,0,0,0,0,0,0,0,0,0,0,0,0,0,0]},{"id":4,"name":"objects","type":"objectgroup","visible":true,"opacity":1,"x":0,"y":0,"draworder":"topdown","objects":[{"id":1,"name":"to_dungeon2_4","type":"warp","x":224,"y":80,"width":16,"height":32,"rotation":0,"visible":true,"properties":[{"name":"map","type":"string","value":"dungeon2_4"},{"name":"spawn","type":"string","value":"west"}]},{"id":2,"name":"east","type":"spawn","x":184,"y":96,"width":0,"height":0,"rotation":0,"visible":true,"point":true,"properties":[{"name":"facing","type":"string","value":"left"}]},{"id":3,"name":"to_dungeon2_22","type":"warp","x":0,"y":80,"width":16,"height":32,"rotation":0,"visible":true,"properties":[{"name":"map","type":"string","value":"dungeon2_22"},{"name":"spawn","type":"string","value":"east"}]},{"id":4,"name":"west","type":"spawn","x":56,"y":96,"width":0,"height":0,"rotation":0,"visible":true,"point":true,"properties":[{"name":"facing","type":"string","value":"right"}]},{"id":5,"name":"EyeGate","type":"gate","x":16,"y":80,"width":16,"height":32,"rotation":0,"visible":true,"properties":[{"name":"flag","type":"string","value":"eye:dungeon2_11:W"},{"name":"text","type":"string","value":"The gate is shut. A stone eye stares from nearby... Only an arrow could reach it."}]},{"id":6,"name":"Eye","type":"switch","x":40,"y":136,"width":0,"height":0,"rotation":0,"visible":true,"point":true,"properties":[{"name":"mode","type":"string","value":"crystal"},{"name":"hitBy","type":"string","value":"bow"},{"name":"flag","type":"string","value":"eye:dungeon2_11:W"}]},{"id":7,"name":"Chest","type":"chest","x":120,"y":104,"width":0,"height":0,"rotation":0,"visible":true,"point":true,"properties":[{"name":"item","type":"string","value":"compass"},{"name":"flag","type":"string","value":"compass:dungeon2"}]},{"id":8,"name":"Enemy","type":"enemy","x":136,"y":152,"width":0,"height":0,"rotation":0,"visible":true,"point":true,"properties":[{"name":"enemy","type":"string","value":"bat"}]},{"id":9,"name":"Enemy","type":"enemy","x":120,"y":56,"width":0,"height":0,"rotation":0,"visible":true,"point":true,"properties":[{"name":"enemy","type":"string","value":"wisp"}]},{"id":10,"name":"Pot","type":"pot","x":24,"y":168,"width":0,"height":0,"rotation":0,"visible":true,"point":true,"properties":[]},{"id":11,"name":"Pot","type":"pot","x":216,"y":168,"width":0,"height":0,"rotation":0,"visible":true,"point":true,"properties":[]},{"id":12,"name":"Torch","type":"torch","x":200,"y":168,"width":0,"height":0,"rotation":0,"visible":true,"point":true,"properties":[{"name":"lit","type":"bool","value":true},{"name":"radius","type":"int","value":56}]},{"id":13,"name":"Torch","type":"torch","x":200,"y":40,"width":0,"height":0,"rotation":0,"visible":true,"point":true,"properties":[{"name":"lit","type":"bool","value":true},{"name":"radius","type":"int","value":56}]},{"id":14,"name":"Torch","type":"torch","x":40,"y":40,"width":0,"height":0,"rotation":0,"visible":true,"point":true,"properties":[{"name":"lit","type":"bool","value":true},{"name":"radius","type":"int","value":56}]}]}],"nextlayerid":5,"nextobjectid":15}