{"type":"map","version":"1.10","tiledversion":"1.10.2","orientation":"orthogonal","renderorder":"right-down","width":18,"height":12,"tilewidth":16,"tileheight":16,"infinite":false,"compressionlevel":-1,"tilesets":[{"firstgid":1,"source":"../assets/tilesets/placeholder.tsj"}],"layers":[{"id":1,"name":"ground","type":"tilelayer","visible":true,"opacity":1,"x":0,"y":0,"width":18,"height":12,"data":[33,33,33,33,33,33,33,33,33,33,33,33,33,33,33,33,33,33,33,33,33,33,33,33,33,33,33,33,33,33,33,33,33,33,33,33,33,33,33,33,33,33,33,33,33,33,33,33,33,33,33,33,33,33,33,33,33,33,33,20,20,20,20,20,20,20,20,33,33,33,33,33,33,33,33,8,33,20,20,20,20,20,20,20,20,33,8,33,33,33,33,33,33,33,33,20,20,20,20,20,20,20,20,33,33,33,33,33,33,33,33,33,33,33,33,33,3,3,33,33,33,33,33,33,33,33,33,33,33,33,33,33,33,33,3,3,33,33,33,33,33,33,33,33,33,33,33,33,33,33,33,33,3,3,33,33,33,33,33,33,33,33,33,33,33,33,33,33,33,33,3,3,33,33,33,33,33,33,33,33,33,33,33,33,33,33,33,33,3,3,33,33,33,33,33,33,33,33,33,33,33,33,33,33,33,33,3,3,33,33,33,33,33,33,33,33]},{"id":2,"name":"walls","type":"tilelayer","visible":true,"opacity":1,"x":0,"y":0,"width":18,"height":12,"data":[34,34,34,34,34,34,34,34,34,34,34,34,34,34,34,34,34,34,34,0,7,7,7,0,0,0,0,0,0,0,0,7,7,7,0,34,34,0,7,7,7,0,0,0,0,0,0,0,0,7,7,7,0,34,34,0,6,6,6,0,0,0,0,0,0,0,0,6,6,6,0,34,34,0,6,0,6,0,0,0,0,0,0,0,0,6,0,6,0,34,34,0,0,0,0,0,0,0,0,0,0,0,0,0,0,0,0,34,34,0,0,0,0,0,0,0,0,0,0,0,0,0,0,0,0,34,34,0,0,0,0,0,0,0,0,0,0,0,0,0,0,0,0,34,34,0,0,0,0,0,0,0,0,0,0,0,0,0,0,0,0,34,34,0,0,0,0,0,0,0,0,0,0,0,0,0,0,0,0,34,34,0,0,0,0,0,0,0,0,0,0,0,0,0,0,0,0,34,34,34,34,34,34,34,34,34,0,0,34,34,34,34,34,34,34,34]},{"id":3,"name":"above","type":"tilelayer","visible":true,"opacity":1,"x":0,"y":0,"width":18,"height":12,"data":[0,0,0,0,0,0,0,0,0,0,0,0,0,0,0,0,0,0,0,0,0,0,0,0,0,0,0,0,0,0,0,0,0,0,0,0,0,0,0,0,0,0,0,0,0,0,0,0,0,0,0,0,0,0,0,0,0,0,0,0,0,0,0,0,0,0,0,0,0,0,0,0,0,0,0,0,0,0,0,0,0,0,0,0,0,0,0,0,0,0,0,0,0,0,0,0,0,0,0,0,0,0,0,0,0,0,0,0,0,0,0,0,0,0,0,0,0,0,0,0,0,0,0,0,0,0,0,0,0,0,0,0,0,0,0,0,0,0,0,0,0,0,0,0,0,0,0,0,0,0,0,0,0,0,0,0,0,0,0,0,0,0,0,0,0,0,0,0,0,0,0,0,0,0,0,0,0,0,0,0,0,0,0,0,0,0,0,0,0,0,0,0,0,0,0,0,0,0,0,0,0,0,0,0,0,0,0,0,0,0,0,0,0,0,0,0]},{"id":4,"name":"objects","type":"objectgroup","visible":true,"opacity":1,"x":0,"y":0,"draworder":"topdown","objects":[{"id":1,"name":"to_crypt","type":"warp","x":128,"y":176,"width":32,"height":16,"rotation":0,"visible":true,"properties":[{"name":"map","type":"string","value":"dungeon2_boss"},{"name":"spawn","type":"string","value":"north"}]},{"id":2,"name":"south","type":"spawn","x":144,"y":152,"width":0,"height":0,"rotation":0,"visible":true,"point":true,"properties":[{"name":"facing","type":"string","value":"up"}]},{"id":3,"name":"Guard","type":"npc","x":168,"y":120,"width":0,"height":0,"rotation":0,"visible":true,"point":true,"properties":[{"name":"sprite","type":"string","value":"npc_guard"},{"name":"dialogue","type":"string","value":"town3_greeter"},{"name":"facing","type":"string","value":"down"}]},{"id":4,"name":"Sign","type":"sign","x":120,"y":120,"width":0,"height":0,"rotation":0,"visible":true,"point":true,"properties":[{"name":"text","type":"string","value":"TOWN 3\\n(Under construction - next milestone!)"}]}]}],"nextlayerid":5,"nextobjectid":5}