{"type":"map","version":"1.10","tiledversion":"1.10.2","orientation":"orthogonal","renderorder":"right-down","width":30,"height":20,"tilewidth":16,"tileheight":16,"infinite":false,"compressionlevel":-1,"tilesets":[{"firstgid":1,"source":"../assets/tilesets/placeholder.tsj"}],"layers":[{"id":1,"name":"ground","type":"tilelayer","visible":true,"opacity":1,"x":0,"y":0,"width":30,"height":20,"data":[1,1,1,1,1,1,1,1,2,1,1,1,1,1,1,1,1,1,1,1,1,1,1,2,1,1,1,1,1,1,2,1,1,1,1,1,2,1,1,1,1,1,1,1,1,1,1,1,1,1,2,1,2,1,1,1,1,1,1,1,1,1,1,1,1,1,1,1,1,1,1,1,1,2,1,1,1,1,15,15,15,15,1,2,1,1,1,1,1,1,1,1,1,1,1,2,1,1,1,1,1,1,1,1,1,1,1,1,1,1,1,1,1,1,1,13,1,2,1,1,1,1,2,1,1,1,1,2,1,1,1,1,1,1,3,3,3,3,3,3,3,3,3,3,3,3,1,2,1,1,1,1,1,1,1,2,1,1,1,1,1,1,2,1,3,2,1,2,1,1,1,1,1,1,1,3,1,1,1,1,1,1,1,1,1,8,2,1,1,1,1,1,1,1,3,2,1,1,2,1,1,1,1,1,1,3,1,1,1,1,1,2,1,1,1,3,1,1,1,2,1,1,1,1,3,1,1,1,1,1,1,2,2,2,1,3,1,1,1,1,1,1,1,1,1,3,1,1,1,1,1,20,20,20,20,20,20,20,1,2,2,1,1,1,1,3,1,1,1,1,1,1,1,1,1,3,1,2,1,1,1,20,20,20,20,20,20,20,1,1,1,1,1,2,1,3,2,1,1,1,1,3,3,3,3,3,3,3,3,3,3,20,20,20,20,20,20,20,3,3,3,3,3,3,3,3,3,3,3,1,1,1,2,1,1,1,1,1,1,1,1,20,20,20,20,20,20,20,1,1,1,1,1,1,1,1,1,1,2,1,1,1,1,1,1,1,1,1,1,1,1,20,20,20,20,20,20,20,1,1,1,1,1,1,1,1,1,1,1,1,2,1,1,4,4,4,4,4,4,1,1,2,1,1,3,1,1,1,1,1,2,1,1,1,1,1,1,1,1,1,1,1,1,4,4,4,4,4,4,1,1,1,1,1,3,1,1,1,1,1,1,1,2,1,1,1,1,1,1,1,1,1,1,4,4,4,4,4,4,1,1,1,1,1,3,1,1,1,1,1,1,1,1,8,1,1,1,1,2,1,1,1,1,4,4,4,4,4,4,1,1,1,1,1,3,3,3,3,3,3,3,3,3,3,1,2,1,1,1,1,1,1,2,1,1,1,1,1,1,1,1,1,1,2,3,1,1,1,1,1,1,1,1,1,1,1,1,1,1,1,1,1,1,1,1,1,1,1,1,1,2,1,1,1,3,1,1,1,1,1,1,1,1,1,1,1,1,1,1,1,1,1,1,1,1,1,1,1,1,1,1,1,1,1,1,1,1,1,1,1,1,1,1,1,1,1,1,1,1,1]},{"id":2,"name":"walls","type":"tilelayer","visible":true,"opacity":1,"x":0,"y":0,"width":30,"height":20,"data":[5,5,5,5,5,5,5,5,5,5,5,5,5,5,5,5,5,5,5,5,5,5,5,5,5,5,5,5,5,5,5,0,0,0,0,0,0,0,0,0,0,0,0,0,0,0,0,0,7,7,7,7,0,12,12,12,12,12,0,5,5,0,0,0,0,0,0,0,0,0,0,0,0,0,0,0,0,0,0,0,0,0,0,11,11,11,11,11,0,5,5,0,0,7,7,7,7,7,0,21,21,0,0,0,0,0,0,0,17,17,17,17,0,11,11,0,11,11,0,5,5,0,0,7,7,7,7,7,0,0,0,0,0,0,0,0,0,0,0,0,0,0,0,0,0,0,0,0,0,5,5,0,0,6,6,6,6,6,0,0,0,0,0,0,0,0,0,0,0,0,0,0,0,0,0,0,0,0,0,5,5,0,0,6,6,0,6,6,0,0,0,0,0,0,0,0,0,0,0,0,0,0,0,0,0,0,0,0,0,5,5,0,0,0,0,0,0,0,0,0,0,0,0,0,0,0,0,0,0,0,0,0,0,0,0,0,0,0,0,5,5,0,0,0,0,0,0,0,0,0,0,0,0,0,0,0,0,0,0,0,0,0,0,0,0,0,21,21,0,5,5,0,21,0,0,0,0,0,0,0,0,0,0,0,0,0,0,0,0,0,0,0,0,0,0,0,0,0,0,5,5,0,0,0,0,0,0,0,0,0,0,0,0,0,0,0,0,0,0,0,0,0,0,0,0,0,0,0,0,5,5,0,0,0,0,0,0,0,0,0,0,0,0,0,0,0,0,0,0,0,0,0,0,0,0,0,0,0,0,5,5,0,14,14,14,14,14,14,14,14,0,0,0,0,0,0,0,0,0,0,7,7,7,7,7,7,0,0,0,5,5,0,0,0,0,0,0,0,0,5,0,0,0,0,0,0,0,0,0,0,7,7,7,7,7,7,0,0,0,5,5,0,0,0,0,0,0,0,0,0,0,0,0,0,0,0,0,0,0,0,6,6,6,6,6,6,0,0,0,5,5,0,0,0,0,0,0,0,0,0,0,21,0,0,0,0,0,0,0,0,6,6,6,0,6,6,0,0,0,5,5,0,0,0,0,0,0,0,0,0,0,0,0,0,0,0,0,0,0,0,0,0,0,0,0,0,0,0,0,5,5,0,14,14,14,14,14,14,14,14,0,0,21,0,0,0,0,0,0,0,0,0,0,0,0,0,0,0,0,5,5,0,0,0,0,0,0,0,0,0,0,0,0,0,0,0,0,0,0,0,0,0,0,0,0,0,0,0,0,5,5,5,5,5,5,5,5,5,5,5,5,5,5,5,5,5,5,5,5,5,5,5,5,5,5,5,5,5,5,5]},{"id":3,"name":"above","type":"tilelayer","visible":true,"opacity":1,"x":0,"y":0,"width":30,"height":20,"data":[0,0,0,0,0,0,0,0,0,0,0,0,0,0,0,0,0,0,0,0,0,0,0,0,0,0,0,0,0,0,0,0,0,0,0,0,0,0,0,0,0,0,0,0,0,0,0,0,0,0,0,0,0,0,0,0,0,0,0,0,0,0,0,0,0,0,0,0,0,0,0,0,0,0,0,0,0,0,0,0,0,0,0,0,0,0,0,0,0,0,0,0,0,0,0,0,0,0,0,0,0,0,0,0,0,0,0,0,0,0,0,0,0,0,0,0,0,0,0,0,0,0,0,0,0,0,0,0,0,0,0,0,0,0,0,0,0,0,0,0,0,0,0,0,0,0,0,0,0,0,0,0,0,0,0,0,0,0,0,0,0,0,0,0,0,0,0,0,0,0,0,0,0,0,0,0,0,0,0,0,0,0,0,0,0,0,0,0,0,0,0,0,0,0,0,0,0,0,0,0,0,0,0,0,0,0,0,0,0,0,0,0,0,0,0,0,0,0,0,0,0,0,0,0,0,0,0,0,0,0,0,0,0,0,0,0,0,0,0,0,0,0,0,0,0,0,0,0,0,0,0,0,0,0,0,0,0,0,0,0,0,0,0,0,0,0,0,0,0,0,0,0,0,0,0,0,0,0,0,0,0,0,0,0,0,0,0,0,0,0,0,0,0,0,0,0,0,0,0,0,0,0,0,0,0,0,0,0,0,0,0,0,0,0,0,0,0,0,0,0,0,0,0,0,0,0,0,0,0,0,0,0,0,0,0,0,0,0,0,0,0,0,0,0,0,0,0,0,0,0,0,0,0,0,0,0,0,0,0,0,0,0,0,0,0,0,0,0,0,23,0,0,0,0,0,0,0,0,0,0,0,0,0,0,0,0,0,0,0,0,0,0,0,0,0,0,0,0,0,0,0,0,0,0,0,0,0,0,0,0,0,0,0,0,0,0,0,0,0,0,0,0,0,0,0,0,0,0,0,0,0,0,0,0,0,0,0,0,0,0,0,0,0,0,0,0,0,0,0,0,0,0,0,0,0,0,0,0,0,0,0,0,0,0,0,0,0,0,0,0,0,0,0,0,0,0,0,0,0,0,0,0,0,0,0,0,0,0,0,0,0,0,0,0,0,0,0,0,0,0,0,0,0,0,0,0,0,0,0,0,0,0,0,0,0,0,0,0,0,0,0,0,0,0,0,0,0,0,0,0,0,0,0,0,0,0,0,0,0,0,0,0,0,0,0,0,0,0,0,0,0,0,0,0,0,0,0,0,0,0,0,0,0,0,0,0,0,0,0,0,0,0,0,0,0,0,0,0,0,0,0,0,0,0,0,0,0,0,0,0,0,0,0,0,0,0,0,0,0,0]},{"id":4,"name":"objects","type":"objectgroup","visible":true,"opacity":1,"x":0,"y":0,"draworder":"topdown","objects":[{"id":1,"name":"start","type":"spawn","x":232,"y":216,"width":0,"height":0,"rotation":0,"visible":true,"point":true,"properties":[]},{"id":2,"name":"from_dungeon","type":"spawn","x":408,"y":88,"width":0,"height":0,"rotation":0,"visible":true,"point":true,"properties":[{"name":"facing","type":"string","value":"down"}]},{"id":3,"name":"to_dungeon","type":"warp","x":400,"y":48,"width":16,"height":16,"rotation":0,"visible":true,"properties":[{"name":"map","type":"string","value":"dungeon1_1"},{"name":"spawn","type":"string","value":"entrance"}]},{"id":4,"name":"Elder","type":"npc","x":216,"y":152,"width":0,"height":0,"rotation":0,"visible":true,"point":true,"properties":[{"name":"sprite","type":"string","value":"npc_elder"},{"name":"dialogue","type":"string","value":"elder"},{"name":"facing","type":"string","value":"down"}]},{"id":5,"name":"Kid","type":"npc","x":280,"y":200,"width":0,"height":0,"rotation":0,"visible":true,"point":true,"properties":[{"name":"sprite","type":"string","value":"npc_kid"},{"name":"dialogue","type":"string","value":"kid"},{"name":"wander","type":"bool","value":true}]},{"id":6,"name":"Merchant","type":"shop","x":312,"y":40,"width":0,"height":0,"rotation":0,"visible":true,"point":true,"properties":[{"name":"sprite","type":"string","value":"npc_merchant"},{"name":"shop","type":"string","value":"town1_shop"},{"name":"facing","type":"string","value":"down"}]},{"id":7,"name":"Mage","type":"teacher","x":360,"y":264,"width":0,"height":0,"rotation":0,"visible":true,"point":true,"properties":[{"name":"sprite","type":"string","value":"npc_mage"},{"name":"teacher","type":"string","value":"town1_teacher"},{"name":"facing","type":"string","value":"down"}]},{"id":8,"name":"Healer","type":"healer","x":72,"y":120,"width":0,"height":0,"rotation":0,"visible":true,"point":true,"properties":[{"name":"sprite","type":"string","value":"npc_healer"},{"name":"dialogue","type":"string","value":"healer"},{"name":"facing","type":"string","value":"down"}]},{"id":9,"name":"Sign","type":"sign","x":392,"y":88,"width":0,"height":0,"rotation":0,"visible":true,"point":true,"properties":[{"name":"text","type":"string","value":"DUNGEON 1\nMonsters inside. Turn back if you value your life!"}]},{"id":10,"name":"Sign","type":"sign","x":248,"y":152,"width":0,"height":0,"rotation":0,"visible":true,"point":true,"properties":[{"name":"text","type":"string","value":"TOWN 1\nNorth-east: Dungeon 1\nWest: Healer   East: Market"}]},{"id":11,"name":"Chest","type":"chest","x":456,"y":296,"width":0,"height":0,"rotation":0,"visible":true,"point":true,"properties":[{"name":"gold","type":"int","value":15}]}]}],"nextlayerid":5,"nextobjectid":12}