{"type":"map","version":"1.10","tiledversion":"1.10.2","orientation":"orthogonal","renderorder":"right-down","width":28,"height":20,"tilewidth":16,"tileheight":16,"infinite":false,"compressionlevel":-1,"tilesets":[{"firstgid":1,"source":"../assets/tilesets/placeholder.tsj"}],"layers":[{"id":1,"name":"ground","type":"tilelayer","visible":true,"opacity":1,"x":0,"y":0,"width":28,"height":20,"data":[33,33,33,33,33,33,33,33,33,33,33,33,33,33,3,33,33,33,33,33,33,33,33,3,33,33,33,33,33,33,33,33,33,33,33,33,33,33,33,33,33,33,33,33,33,33,33,33,33,33,33,33,33,33,33,33,33,33,33,33,33,3,33,33,33,33,33,33,33,3,33,33,33,33,33,33,33,33,33,33,33,33,33,33,33,33,33,33,33,33,33,33,33,33,33,33,33,13,13,33,33,33,33,33,33,3,33,33,33,33,33,33,33,33,33,33,33,33,33,33,33,33,33,33,33,20,20,33,33,33,33,33,33,33,33,33,33,3,33,33,33,33,33,33,8,33,33,33,33,33,33,33,33,20,20,33,33,33,33,33,33,33,8,33,33,33,33,33,33,33,33,33,33,33,33,33,33,33,3,33,33,20,20,33,33,33,33,33,33,33,33,33,33,33,33,33,33,33,33,33,33,33,33,33,33,33,33,33,33,20,20,33,3,33,33,3,33,33,33,33,33,33,33,33,33,33,33,33,33,33,33,33,3,20,20,20,20,20,20,20,20,20,20,33,33,33,33,33,33,33,33,33,33,33,33,33,33,33,33,33,33,20,20,20,20,20,20,20,20,20,20,33,33,33,33,33,33,33,33,3,33,33,20,20,20,20,20,20,20,20,20,20,20,20,20,20,20,20,20,20,20,20,20,20,20,20,33,33,33,33,33,33,33,33,33,33,33,20,20,20,20,20,20,20,20,20,20,33,33,33,33,33,33,33,33,33,33,33,3,33,33,33,33,33,33,20,20,20,20,20,20,20,20,20,20,33,33,3,33,33,33,33,33,33,33,33,33,33,33,33,33,33,33,33,33,33,33,20,20,33,33,33,33,39,39,39,39,39,33,33,33,33,33,33,33,33,33,33,33,33,33,33,33,33,33,20,20,33,3,33,33,39,39,39,39,39,33,33,33,33,3,33,33,33,33,8,3,33,33,33,33,33,33,20,20,33,33,33,33,39,39,39,39,39,33,33,33,33,33,33,33,33,33,33,33,33,33,33,33,33,33,20,20,33,33,33,33,33,33,33,33,33,33,33,33,33,33,33,33,3,33,33,3,33,33,33,33,33,33,20,20,33,33,33,33,33,33,33,33,3,33,33,33,33,33,33,33,33,33,33,33,33,33,33,33,33,33,20,20,33,33,33,33,33,33,33,33,33,33,33,33,33,33,3,33,33,33,33,33,33,33,33,33,33,33,20,20,33,33,33,33,33,33,33,33,33,33,33,33,33]},{"id":2,"name":"walls","type":"tilelayer","visible":true,"opacity":1,"x":0,"y":0,"width":28,"height":20,"data":[36,36,36,36,36,36,36,36,36,36,36,36,36,36,36,36,36,36,36,36,36,36,36,36,36,36,36,36,36,0,0,0,0,0,0,0,0,0,37,37,37,37,37,37,37,37,0,0,0,0,0,0,0,0,0,36,36,0,7,7,7,7,7,7,0,0,36,36,36,36,36,36,36,36,0,0,7,7,7,7,7,7,0,36,36,0,7,7,7,7,7,7,0,0,36,36,36,0,0,36,36,36,0,0,7,7,7,7,7,7,0,36,36,0,6,6,6,6,6,6,0,19,0,0,0,0,0,0,0,0,19,0,6,6,6,6,6,6,0,36,36,0,6,6,0,6,6,6,0,0,0,0,0,0,0,0,0,0,0,0,6,6,0,6,6,6,0,36,36,0,0,0,0,0,0,0,0,0,0,0,0,0,0,0,0,0,0,0,0,0,0,0,0,0,0,36,36,0,0,0,0,0,0,0,0,0,40,0,0,0,0,0,0,40,0,0,0,0,0,0,0,0,0,36,36,34,0,0,0,0,0,0,0,0,0,0,0,0,0,0,0,0,0,0,0,0,0,0,0,0,34,36,36,0,0,34,0,0,0,0,0,0,0,44,0,0,0,0,44,0,0,0,0,0,0,0,0,0,0,36,36,0,0,0,0,0,0,0,0,0,0,0,0,0,0,0,0,0,0,0,0,0,0,0,0,0,0,36,36,0,0,0,0,0,0,0,0,0,0,0,0,0,0,0,0,0,0,0,0,0,0,0,34,0,0,36,36,0,7,7,7,7,7,7,7,7,0,0,0,0,0,0,0,0,14,14,14,14,14,14,14,0,0,36,36,0,7,7,7,7,7,7,7,7,0,0,0,0,0,0,0,0,0,0,0,0,0,0,0,0,0,36,36,0,19,6,6,6,6,6,6,19,0,0,0,0,0,0,0,0,0,0,0,0,0,0,0,0,0,36,36,0,6,6,6,0,6,6,6,6,0,0,0,0,0,0,0,0,0,0,0,0,0,0,0,0,0,36,36,0,0,0,0,0,0,0,0,0,0,0,0,0,0,0,0,0,14,14,14,14,14,14,14,0,0,36,36,0,0,0,0,0,0,0,0,0,0,0,0,0,0,0,0,0,0,0,0,0,0,0,0,0,0,36,36,0,0,0,0,0,0,0,34,0,0,0,0,0,0,0,0,0,0,0,34,0,0,0,0,0,0,36,36,36,36,36,36,36,36,36,36,36,36,36,36,0,0,36,36,36,36,36,36,36,36,36,36,36,36,36]},{"id":3,"name":"above","type":"tilelayer","visible":true,"opacity":1,"x":0,"y":0,"width":28,"height":20,"data":[0,0,0,0,0,0,0,0,0,0,0,0,0,0,0,0,0,0,0,0,0,0,0,0,0,0,0,0,0,0,0,0,0,0,0,0,0,0,0,0,0,0,0,0,0,0,0,0,0,0,0,0,0,0,0,0,0,0,0,0,0,0,0,0,0,0,0,0,0,0,0,0,0,0,0,0,0,0,0,0,0,0,0,0,0,0,0,0,0,0,0,0,0,0,0,0,0,0,0,0,0,0,0,0,0,0,0,0,0,0,0,0,0,0,0,0,0,0,0,0,0,0,0,0,0,0,0,0,0,0,0,0,0,0,0,0,0,0,0,0,0,0,0,0,0,0,0,0,0,0,0,0,0,0,0,0,0,0,0,0,0,0,0,0,0,0,0,0,0,0,0,0,0,0,0,0,0,0,0,0,0,0,0,0,0,0,0,0,0,0,0,0,0,0,0,0,0,0,0,0,0,0,0,0,0,0,0,0,0,0,0,0,0,0,0,0,0,0,0,0,0,0,0,0,0,0,0,0,0,0,0,0,0,0,0,0,0,0,0,0,0,0,0,0,0,0,0,0,0,0,0,0,0,0,0,0,0,0,0,0,0,0,0,0,0,0,0,0,0,0,0,0,0,0,0,0,0,0,0,0,0,0,0,0,0,0,0,0,0,0,0,0,0,0,0,0,0,0,0,0,0,0,0,0,0,0,0,0,0,0,0,0,0,0,0,0,0,0,0,0,0,0,0,0,0,0,0,0,0,0,0,0,0,0,0,0,0,0,0,0,0,0,0,0,0,0,0,0,0,0,0,0,0,0,0,0,0,0,0,0,0,0,0,0,0,0,0,0,0,0,0,0,0,0,0,0,0,0,0,0,0,0,0,0,0,0,0,0,0,0,0,0,0,0,0,0,0,0,0,0,0,0,0,0,0,0,0,0,0,0,0,0,0,0,0,0,0,0,0,0,0,0,0,0,0,0,0,0,0,0,0,0,0,0,0,0,0,0,0,0,0,0,0,0,0,0,0,0,0,0,0,0,0,0,0,0,0,0,0,0,0,0,0,0,0,0,0,0,0,0,0,0,0,0,0,0,0,0,0,0,0,0,0,0,0,0,0,0,0,0,0,0,0,0,0,0,0,0,0,0,0,0,0,0,0,0,0,0,0,0,0,0,0,0,0,0,0,0,0,0,0,0,0,0,0,0,0,0,0,0,0,0,0,0,0,0,0,0,0,0,0,0,0,0,0,0,0,0,0,0,0,0,0,0,0,0,0,0,0,0]},{"id":4,"name":"objects","type":"objectgroup","visible":true,"opacity":1,"x":0,"y":0,"draworder":"topdown","objects":[{"id":1,"name":"to_spire","type":"warp","x":208,"y":48,"width":32,"height":16,"rotation":0,"visible":true,"properties":[{"name":"map","type":"string","value":"dungeon4_1"},{"name":"spawn","type":"string","value":"entrance"}]},{"id":2,"name":"from_dungeon","type":"spawn","x":224,"y":88,"width":0,"height":0,"rotation":0,"visible":true,"point":true,"properties":[{"name":"facing","type":"string","value":"down"}]},{"id":3,"name":"Sign","type":"sign","x":264,"y":80,"width":0,"height":0,"rotation":0,"visible":true,"point":true,"properties":[{"name":"text","type":"string","value":"THE HOLLOW SPIRE\\nThe last seal. The King waits at the top."}]},{"id":4,"name":"Torch","type":"torch","x":152,"y":88,"width":0,"height":0,"rotation":0,"visible":true,"point":true,"properties":[{"name":"lit","type":"bool","value":true}]},{"id":5,"name":"Torch","type":"torch","x":296,"y":88,"width":0,"height":0,"rotation":0,"visible":true,"point":true,"properties":[{"name":"lit","type":"bool","value":true}]},{"id":6,"name":"to_cavern","type":"warp","x":208,"y":304,"width":32,"height":16,"rotation":0,"visible":true,"properties":[{"name":"map","type":"string","value":"dungeon3_boss"},{"name":"spawn","type":"string","value":"north"}]},{"id":7,"name":"south","type":"spawn","x":224,"y":280,"width":0,"height":0,"rotation":0,"visible":true,"point":true,"properties":[{"name":"facing","type":"string","value":"up"}]},{"id":8,"name":"to_inn","type":"warp","x":64,"y":80,"width":16,"height":16,"rotation":0,"visible":true,"properties":[{"name":"map","type":"string","value":"town4_inn"},{"name":"spawn","type":"string","value":"entrance"}]},{"id":9,"name":"from_inn","type":"spawn","x":72,"y":113.6,"width":0,"height":0,"rotation":0,"visible":true,"point":true,"properties":[{"name":"facing","type":"string","value":"down"}]},{"id":10,"name":"Sign","type":"sign","x":120,"y":112,"width":0,"height":0,"rotation":0,"visible":true,"point":true,"properties":[{"name":"text","type":"string","value":"INN\\nRest and save."}]},{"id":11,"name":"to_shop","type":"warp","x":352,"y":80,"width":16,"height":16,"rotation":0,"visible":true,"properties":[{"name":"map","type":"string","value":"town4_shop"},{"name":"spawn","type":"string","value":"entrance"}]},{"id":12,"name":"from_shop","type":"spawn","x":360,"y":113.6,"width":0,"height":0,"rotation":0,"visible":true,"point":true,"properties":[{"name":"facing","type":"string","value":"down"}]},{"id":13,"name":"Sign","type":"sign","x":408,"y":112,"width":0,"height":0,"rotation":0,"visible":true,"point":true,"properties":[{"name":"text","type":"string","value":"BAZAAR"}]},{"id":14,"name":"to_temple","type":"warp","x":80,"y":240,"width":16,"height":16,"rotation":0,"visible":true,"properties":[{"name":"map","type":"string","value":"town4_temple"},{"name":"spawn","type":"string","value":"entrance"}]},{"id":15,"name":"from_temple","type":"spawn","x":88,"y":273.6,"width":0,"height":0,"rotation":0,"visible":true,"point":true,"properties":[{"name":"facing","type":"string","value":"down"}]},{"id":16,"name":"Sign","type":"sign","x":120,"y":272,"width":0,"height":0,"rotation":0,"visible":true,"point":true,"properties":[{"name":"text","type":"string","value":"TEMPLE OF THE SUN\\nThe Sage awaits."}]},{"id":17,"name":"Glow","type":"light","x":344,"y":232,"width":0,"height":0,"rotation":0,"visible":true,"point":true,"properties":[{"name":"radius","type":"int","value":40}]},{"id":18,"name":"Guard","type":"npc","x":256,"y":264,"width":0,"height":0,"rotation":0,"visible":true,"point":true,"properties":[{"name":"sprite","type":"string","value":"npc_guard"},{"name":"dialogue","type":"string","value":"town4_greeter"},{"name":"facing","type":"string","value":"down"}]},{"id":19,"name":"Kid","type":"npc","x":248,"y":184,"width":0,"height":0,"rotation":0,"visible":true,"point":true,"properties":[{"name":"sprite","type":"string","value":"npc_kid"},{"name":"dialogue","type":"string","value":"town4_kid"},{"name":"wander","type":"bool","value":true}]},{"id":20,"name":"Weaver","type":"npc","x":136,"y":152,"width":0,"height":0,"rotation":0,"visible":true,"point":true,"properties":[{"name":"sprite","type":"string","value":"npc_villager"},{"name":"dialogue","type":"string","value":"town4_lady"},{"name":"facing","type":"string","value":"down"}]},{"id":21,"name":"Chest","type":"chest","x":416,"y":280,"width":0,"height":0,"rotation":0,"visible":true,"point":true,"properties":[{"name":"gold","type":"int","value":40}]},{"id":22,"name":"Pot","type":"pot","x":24,"y":24,"width":0,"height":0,"rotation":0,"visible":true,"point":true,"properties":[]},{"id":23,"name":"Pot","type":"pot","x":424,"y":24,"width":0,"height":0,"rotation":0,"visible":true,"point":true,"properties":[]},{"id":24,"name":"Pot","type":"pot","x":24,"y":296,"width":0,"height":0,"rotation":0,"visible":true,"point":true,"properties":[]}]}],"nextlayerid":5,"nextobjectid":25}