{"type":"map","version":"1.10","tiledversion":"1.10.2","orientation":"orthogonal","renderorder":"right-down","width":26,"height":18,"tilewidth":16,"tileheight":16,"infinite":false,"compressionlevel":-1,"tilesets":[{"firstgid":1,"source":"../assets/tilesets/placeholder.tsj"}],"layers":[{"id":1,"name":"ground","type":"tilelayer","visible":true,"opacity":1,"x":0,"y":0,"width":26,"height":18,"data":[41,41,41,41,41,41,41,41,41,41,41,41,41,41,41,41,41,41,41,41,41,41,41,41,41,41,41,41,41,41,41,41,41,41,41,41,41,41,41,41,41,41,41,41,41,41,41,41,41,41,41,41,41,41,41,41,41,41,41,41,41,41,41,41,41,41,41,41,41,41,41,41,41,41,41,41,41,41,41,41,41,41,41,41,41,41,41,41,41,41,41,13,41,41,41,41,41,41,41,41,41,41,41,41,41,41,41,41,41,41,41,41,41,41,41,41,3,3,41,41,41,41,41,41,41,41,41,41,41,41,41,41,41,41,8,41,41,41,41,41,41,41,3,3,41,41,41,41,41,41,8,41,41,41,41,41,41,41,41,41,41,41,41,41,41,41,41,41,3,3,41,41,41,41,41,41,41,41,41,41,41,41,41,41,41,41,41,41,41,41,41,20,20,20,20,20,20,20,20,41,41,41,41,41,41,41,41,41,41,41,41,41,41,41,41,41,41,20,20,20,20,20,20,20,20,41,41,41,41,41,41,41,41,41,41,41,3,3,3,3,3,3,3,20,20,20,20,20,20,20,20,3,3,3,3,3,3,3,41,41,41,41,41,41,41,41,41,41,41,20,20,20,20,20,20,20,20,41,41,41,41,41,41,41,41,41,41,41,41,41,41,41,41,41,41,20,20,20,20,20,20,20,20,41,20,20,20,20,20,20,41,41,41,41,41,41,41,41,41,41,41,41,41,41,3,3,41,41,41,41,20,20,20,20,20,20,41,41,41,41,41,41,41,41,41,41,41,41,41,41,3,3,41,41,41,41,20,20,20,20,20,20,41,41,41,41,41,41,41,8,41,41,41,41,41,41,3,3,41,41,41,41,20,20,20,20,20,20,41,41,41,41,41,41,41,41,41,41,41,41,41,41,3,3,41,41,41,41,41,41,41,41,41,41,41,41,41,41,41,41,41,41,41,41,41,41,41,41,3,3,41,41,41,41,41,41,41,41,41,41,41,41,41,41,41,41,41,41,41,41,41,41,41,41,3,3,41,41,41,41,41,41,41,41,41,41,41,41]},{"id":2,"name":"walls","type":"tilelayer","visible":true,"opacity":1,"x":0,"y":0,"width":26,"height":18,"data":[42,42,42,42,42,42,42,42,42,42,42,42,42,42,42,42,42,42,42,42,42,42,42,42,42,42,42,0,0,0,0,0,0,0,0,0,37,37,37,37,37,37,0,0,0,0,0,0,0,0,0,42,42,0,7,7,7,7,7,7,0,0,36,36,36,36,36,36,0,0,7,7,7,7,7,7,0,42,42,0,7,7,7,7,7,7,0,34,36,36,36,0,36,36,0,34,7,7,7,7,7,7,0,42,42,0,6,6,6,6,6,6,0,0,0,0,0,0,0,0,0,0,6,6,6,6,6,6,0,42,42,0,6,6,0,6,6,6,0,0,0,0,0,0,0,0,0,0,6,6,0,6,6,6,0,42,42,0,0,0,0,0,0,0,0,0,0,0,0,0,0,0,0,0,0,0,0,0,0,0,0,42,42,0,0,0,0,0,0,0,0,0,0,0,0,0,0,0,44,0,0,0,0,0,0,0,0,42,42,0,0,0,0,0,0,0,0,0,0,0,0,0,0,0,0,0,0,0,0,0,0,0,0,42,42,0,0,0,0,0,0,0,0,0,0,0,0,0,0,0,0,0,0,0,0,0,0,0,34,42,42,0,0,0,0,0,0,0,0,0,0,0,0,0,0,0,0,0,0,0,0,0,0,0,0,42,42,0,7,7,7,7,7,7,0,0,0,0,0,0,0,0,0,0,40,0,0,0,0,40,0,42,42,0,7,7,7,7,7,7,0,0,0,0,0,0,0,0,0,0,0,0,43,0,0,0,0,42,42,0,6,6,6,6,6,6,0,0,0,0,0,0,0,0,0,0,0,0,0,0,0,0,0,42,42,0,6,6,6,0,6,6,0,0,0,0,0,0,0,0,0,0,0,0,0,0,0,0,0,42,42,0,0,0,0,0,0,0,0,0,0,0,0,0,0,0,0,0,0,0,0,0,0,0,0,42,42,0,0,0,0,0,0,0,0,0,0,0,0,0,0,0,0,0,0,0,0,0,0,0,0,42,42,42,42,42,42,42,42,42,42,42,42,42,0,0,42,42,42,42,42,42,42,42,42,42,42,42]},{"id":3,"name":"above","type":"tilelayer","visible":true,"opacity":1,"x":0,"y":0,"width":26,"height":18,"data":[0,0,0,0,0,0,0,0,0,0,0,0,0,0,0,0,0,0,0,0,0,0,0,0,0,0,0,0,0,0,0,0,0,0,0,0,0,0,0,0,0,0,0,0,0,0,0,0,0,0,0,0,0,0,0,0,0,0,0,0,0,0,0,0,0,0,0,0,0,0,0,0,0,0,0,0,0,0,0,0,0,0,0,0,0,0,0,0,0,0,0,0,0,0,0,0,0,0,0,0,0,0,0,0,0,0,0,0,0,0,0,0,0,0,0,0,0,0,0,0,0,0,0,0,0,0,0,0,0,0,0,0,0,0,0,0,0,0,0,0,0,0,0,0,0,0,0,0,0,0,0,0,0,0,0,0,0,0,0,0,0,0,0,0,0,0,0,0,0,0,0,0,0,0,0,0,0,0,0,0,0,0,0,0,0,0,0,0,0,0,0,0,0,0,0,0,0,0,0,0,0,0,0,0,0,0,0,0,0,0,0,0,0,0,0,0,0,0,0,0,0,0,0,0,0,0,0,0,0,0,0,0,0,0,0,0,0,0,0,0,0,0,0,0,0,0,0,0,0,0,0,0,0,0,0,0,0,0,0,0,0,0,0,0,0,0,0,0,0,0,0,0,0,0,0,0,0,0,0,0,0,0,0,0,0,0,0,0,0,0,0,0,0,0,0,0,0,0,0,0,0,0,0,0,0,0,0,0,0,0,0,0,0,0,0,0,0,0,0,0,0,0,0,0,0,0,0,0,0,0,0,0,0,0,0,0,0,0,0,0,0,0,0,0,0,0,0,0,0,0,0,0,0,0,0,0,0,0,0,0,0,0,0,0,0,0,0,0,0,0,0,0,0,0,0,0,0,0,0,0,0,0,0,0,0,0,0,0,0,0,0,0,0,0,0,0,0,0,0,0,0,0,0,0,0,0,0,0,0,0,0,0,0,0,0,0,0,0,0,0,0,0,0,0,0,0,0,0,0,0,0,0,0,0,0,0,0,0,0,0,0,0,0,0,0,0,0,0,0,0,0,0,0,0,0,0,0,0,0,0,0,0,0,0,0,0,0,0]},{"id":4,"name":"objects","type":"objectgroup","visible":true,"opacity":1,"x":0,"y":0,"draworder":"topdown","objects":[{"id":1,"name":"to_crypt","type":"warp","x":208,"y":48,"width":16,"height":16,"rotation":0,"visible":true,"properties":[{"name":"map","type":"string","value":"dungeon2_1"},{"name":"spawn","type":"string","value":"entrance"}]},{"id":2,"name":"from_dungeon","type":"spawn","x":216,"y":88,"width":0,"height":0,"rotation":0,"visible":true,"point":true,"properties":[{"name":"facing","type":"string","value":"down"}]},{"id":3,"name":"Sign","type":"sign","x":248,"y":80,"width":0,"height":0,"rotation":0,"visible":true,"point":true,"properties":[{"name":"text","type":"string","value":"THE SHADOW CRYPT\\nBring fire. The dark devours the unprepared."}]},{"id":4,"name":"to_dungeon1","type":"warp","x":192,"y":272,"width":32,"height":16,"rotation":0,"visible":true,"properties":[{"name":"map","type":"string","value":"dungeon1_boss"},{"name":"spawn","type":"string","value":"north"}]},{"id":5,"name":"south","type":"spawn","x":208,"y":256,"width":0,"height":0,"rotation":0,"visible":true,"point":true,"properties":[{"name":"facing","type":"string","value":"up"}]},{"id":6,"name":"to_inn","type":"warp","x":64,"y":80,"width":16,"height":16,"rotation":0,"visible":true,"properties":[{"name":"map","type":"string","value":"town2_inn"},{"name":"spawn","type":"string","value":"entrance"}]},{"id":7,"name":"from_inn","type":"spawn","x":72,"y":113.6,"width":0,"height":0,"rotation":0,"visible":true,"point":true,"properties":[{"name":"facing","type":"string","value":"down"}]},{"id":8,"name":"Sign","type":"sign","x":120,"y":112,"width":0,"height":0,"rotation":0,"visible":true,"point":true,"properties":[{"name":"text","type":"string","value":"INN\\nRest and save."}]},{"id":9,"name":"to_shop","type":"warp","x":320,"y":80,"width":16,"height":16,"rotation":0,"visible":true,"properties":[{"name":"map","type":"string","value":"town2_shop"},{"name":"spawn","type":"string","value":"entrance"}]},{"id":10,"name":"from_shop","type":"spawn","x":328,"y":113.6,"width":0,"height":0,"rotation":0,"visible":true,"point":true,"properties":[{"name":"facing","type":"string","value":"down"}]},{"id":11,"name":"to_library","type":"warp","x":80,"y":224,"width":16,"height":16,"rotation":0,"visible":true,"properties":[{"name":"map","type":"string","value":"town2_library"},{"name":"spawn","type":"string","value":"entrance"}]},{"id":12,"name":"from_library","type":"spawn","x":88,"y":257.6,"width":0,"height":0,"rotation":0,"visible":true,"point":true,"properties":[{"name":"facing","type":"string","value":"down"}]},{"id":13,"name":"Sign","type":"sign","x":136,"y":248,"width":0,"height":0,"rotation":0,"visible":true,"point":true,"properties":[{"name":"text","type":"string","value":"LIBRARY\\nAdvanced spells."}]},{"id":14,"name":"Smith","type":"smith","x":344,"y":200,"width":0,"height":0,"rotation":0,"visible":true,"point":true,"properties":[{"name":"sprite","type":"string","value":"npc_smith"},{"name":"smith","type":"string","value":"town2_smith"},{"name":"facing","type":"string","value":"down"}]},{"id":15,"name":"Sign","type":"sign","x":312,"y":232,"width":0,"height":0,"rotation":0,"visible":true,"point":true,"properties":[{"name":"text","type":"string","value":"BLACKSMITH\\nWeapon upgrades."}]},{"id":16,"name":"Guard","type":"npc","x":232,"y":96,"width":0,"height":0,"rotation":0,"visible":true,"point":true,"properties":[{"name":"sprite","type":"string","value":"npc_guard"},{"name":"dialogue","type":"string","value":"town2_guard"},{"name":"facing","type":"string","value":"down"}]},{"id":17,"name":"Scholar","type":"npc","x":168,"y":136,"width":0,"height":0,"rotation":0,"visible":true,"point":true,"properties":[{"name":"sprite","type":"string","value":"npc_scholar"},{"name":"dialogue","type":"string","value":"scholar"},{"name":"facing","type":"string","value":"down"}]},{"id":18,"name":"Villager","type":"npc","x":248,"y":184,"width":0,"height":0,"rotation":0,"visible":true,"point":true,"properties":[{"name":"sprite","type":"string","value":"npc_villager"},{"name":"dialogue","type":"string","value":"town2_villager"},{"name":"wander","type":"bool","value":true}]},{"id":19,"name":"Kid","type":"npc","x":120,"y":168,"width":0,"height":0,"rotation":0,"visible":true,"point":true,"properties":[{"name":"sprite","type":"string","value":"npc_kid"},{"name":"dialogue","type":"string","value":"town2_kid"},{"name":"wander","type":"bool","value":true}]},{"id":20,"name":"Chest","type":"chest","x":392,"y":264,"width":0,"height":0,"rotation":0,"visible":true,"point":true,"properties":[{"name":"item","type":"string","value":"antidote"},{"name":"count","type":"int","value":2}]},{"id":21,"name":"Pot","type":"pot","x":24,"y":264,"width":0,"height":0,"rotation":0,"visible":true,"point":true,"properties":[]},{"id":22,"name":"Pot","type":"pot","x":392,"y":24,"width":0,"height":0,"rotation":0,"visible":true,"point":true,"properties":[]}]}],"nextlayerid":5,"nextobjectid":23}