{"type":"map","version":"1.10","tiledversion":"1.10.2","orientation":"orthogonal","renderorder":"right-down","width":12,"height":9,"tilewidth":16,"tileheight":16,"infinite":false,"compressionlevel":-1,"tilesets":[{"firstgid":1,"source":"../assets/tilesets/placeholder.tsj"}],"layers":[{"id":1,"name":"ground","type":"tilelayer","visible":true,"opacity":1,"x":0,"y":0,"width":12,"height":9,"data":[20,20,20,20,20,20,20,20,20,20,20,20,20,20,20,20,20,20,20,20,20,20,20,20,20,20,20,20,20,16,16,16,20,20,20,20,20,20,20,20,20,16,16,16,20,20,20,20,20,20,20,20,20,16,16,16,20,20,20,20,20,20,20,20,20,16,16,16,20,20,20,20,20,20,20,20,20,16,16,16,20,20,20,20,20,20,20,20,20,16,16,16,20,20,20,20,20,20,20,20,20,20,32,20,20,20,20,20]},{"id":2,"name":"walls","type":"tilelayer","visible":true,"opacity":1,"x":0,"y":0,"width":12,"height":9,"data":[26,26,26,26,26,26,26,26,26,26,26,26,26,25,25,31,25,25,25,25,31,25,25,26,26,0,0,0,0,0,0,0,0,0,0,26,26,0,19,0,0,0,0,0,0,19,0,26,26,0,0,0,0,0,0,0,0,0,0,26,26,0,0,0,0,0,0,0,0,0,0,26,26,0,19,0,0,0,0,0,0,19,0,26,26,0,0,0,0,0,0,0,0,0,0,26,26,26,26,26,26,26,0,26,26,26,26,26]},{"id":3,"name":"above","type":"tilelayer","visible":true,"opacity":1,"x":0,"y":0,"width":12,"height":9,"data":[0,0,0,0,0,0,0,0,0,0,0,0,0,0,0,0,0,0,0,0,0,0,0,0,0,0,0,0,0,0,0,0,0,0,0,0,0,0,0,0,0,0,0,0,0,0,0,0,0,0,0,0,0,0,0,0,0,0,0,0,0,0,0,0,0,0,0,0,0,0,0,0,0,0,0,0,0,0,0,0,0,0,0,0,0,0,0,0,0,0,0,0,0,0,0,0,0,0,0,0,0,0,0,0,0,0,0,0]},{"id":4,"name":"objects","type":"objectgroup","visible":true,"opacity":1,"x":0,"y":0,"draworder":"topdown","objects":[{"id":1,"name":"entrance","type":"spawn","x":104,"y":120,"width":0,"height":0,"rotation":0,"visible":true,"point":true,"properties":[{"name":"facing","type":"string","value":"up"}]},{"id":2,"name":"exit","type":"warp","x":96,"y":128,"width":16,"height":16,"rotation":0,"visible":true,"properties":[{"name":"map","type":"string","value":"town4"},{"name":"spawn","type":"string","value":"from_temple"}]},{"id":3,"name":"Sage","type":"npc","x":104,"y":49.6,"width":0,"height":0,"rotation":0,"visible":true,"point":true,"properties":[{"name":"sprite","type":"string","value":"npc_sage"},{"name":"dialogue","type":"string","value":"sage"},{"name":"facing","type":"string","value":"down"}]},{"id":4,"name":"Light","type":"light","x":104,"y":56,"width":0,"height":0,"rotation":0,"visible":true,"point":true,"properties":[{"name":"radius","type":"int","value":40}]},{"id":5,"name":"Gift","type":"chest","x":168,"y":120,"width":0,"height":0,"rotation":0,"visible":true,"point":true,"properties":[{"name":"item","type":"string","value":"ether"},{"name":"count","type":"int","value":2}]}]}],"nextlayerid":5,"nextobjectid":6}